;FLAVOR:Marlin
;TIME:22559
;Filament used: 17.4289m
;Layer height: 0.2
;MINX:14.892
;MINY:14.892
;MINZ:0.2
;MAXX:210.108
;MAXY:210.108
;MAXZ:35
;Generated with Cura_SteamEngine 5.3.0-alpha+cura_9879_88
M82 ;absolute extrusion mode
; Ender 3 S1 Start G-code
G92 E0 ; Reset Extruder
G28 ; Home all axes

; M420 S1 ; Load bed level mesh

G1 Z10.0 F3000 ; Move Z Axis up little to prevent scratching of Heat Bed
G1 X0 Y0

M104 S200
M190 S60
M109 S200

G1 X0.1 Y20 Z0.3 F5000.0 ; Move to start position
G1 X0.1 Y200.0 Z0.3 F1500.0 E15 ; Draw the first line
G1 X0.4 Y200.0 Z0.3 F5000.0 ; Move to side a little
G1 X0.4 Y20 Z0.3 F1500.0 E30 ; Draw the second line
G92 E0 ; Reset Extruder
G1 Z2.0 F3000 ; Move Z Axis up little to prevent scratching of Heat Bed
G1 X5 Y20 Z0.3 F5000.0 ; Move over to prevent blob squish
G92 E0
G92 E0
G1 F2400 E-0.8
;LAYER_COUNT:175
;LAYER:0
M107
M204 S2000
G0 F7500 X42.476 Y18.476 Z0.2
M204 S500
;TYPE:SKIRT
G1 F2400 E0
G1 F1500 X42.957 Y18.008 E0.02232
G1 X43.657 Y17.383 E0.05353
G1 X44.407 Y16.82 E0.08472
G1 X45.202 Y16.323 E0.11591
G1 X46.037 Y15.896 E0.1471
G1 X46.905 Y15.541 E0.17829
G1 X47.8 Y15.262 E0.20947
G1 X48.716 Y15.059 E0.24068
G1 X49.646 Y14.936 E0.27188
G1 X50.583 Y14.892 E0.30308
G1 X51.52 Y14.928 E0.33427
G1 X52.451 Y15.044 E0.36547
G1 X53.368 Y15.239 E0.39665
G1 X54.266 Y15.511 E0.42786
G1 X55.137 Y15.858 E0.45904
G1 X55.975 Y16.279 E0.49024
G1 X56.774 Y16.769 E0.52141
G1 X57.529 Y17.326 E0.55262
G1 X58.157 Y17.873 E0.58032
G1 X58.635 Y18.329 E0.60229
G1 X206.524 Y166.219 E7.55856
G1 X206.992 Y166.7 E7.58088
G1 X207.617 Y167.4 E7.61209
G1 X208.18 Y168.15 E7.64328
G1 X208.677 Y168.945 E7.67446
G1 X209.104 Y169.78 E7.70566
G1 X209.459 Y170.648 E7.73685
G1 X209.738 Y171.543 E7.76803
G1 X209.941 Y172.459 E7.79923
G1 X210.064 Y173.389 E7.83044
G1 X210.108 Y174.326 E7.86163
G1 X210.072 Y175.263 E7.89282
G1 X209.956 Y176.194 E7.92403
G1 X209.761 Y177.111 E7.95521
G1 X209.489 Y178.009 E7.98642
G1 X209.142 Y178.88 E8.0176
G1 X208.721 Y179.718 E8.04879
G1 X208.231 Y180.517 E8.07997
G1 X207.674 Y181.272 E8.11117
G1 X207.133 Y181.894 E8.13859
G1 X206.676 Y182.373 E8.16061
G1 X182.534 Y206.514 E9.29615
G1 X182.045 Y206.99 E9.31885
G1 X181.345 Y207.615 E9.35006
G1 X180.595 Y208.178 E9.38125
G1 X179.8 Y208.675 E9.41244
G1 X178.965 Y209.103 E9.44364
G1 X178.097 Y209.458 E9.47483
G1 X177.202 Y209.738 E9.50602
G1 X176.286 Y209.94 E9.53722
G1 X175.357 Y210.064 E9.5684
G1 X174.42 Y210.108 E9.59959
G1 X173.483 Y210.072 E9.63078
G1 X172.552 Y209.956 E9.66199
G1 X171.634 Y209.762 E9.69319
G1 X170.737 Y209.49 E9.72437
G1 X169.866 Y209.143 E9.75555
G1 X169.027 Y208.722 E9.78678
G1 X168.228 Y208.232 E9.81795
G1 X167.473 Y207.675 E9.84916
G1 X166.799 Y207.086 E9.87893
G1 X166.358 Y206.662 E9.89927
G1 X18.484 Y58.787 E16.85484
G1 X18.016 Y58.307 E16.87713
G1 X17.39 Y57.608 E16.90834
G1 X16.827 Y56.859 E16.93951
G1 X16.329 Y56.064 E16.97071
G1 X15.901 Y55.23 E17.00189
G1 X15.545 Y54.362 E17.03309
G1 X15.265 Y53.467 E17.06428
G1 X15.061 Y52.551 E17.09549
G1 X14.937 Y51.622 E17.12667
G1 X14.892 Y50.685 E17.15787
G1 X14.927 Y49.748 E17.18905
G1 X15.042 Y48.817 E17.22026
G1 X15.236 Y47.899 E17.25146
G1 X15.507 Y47.001 E17.28266
G1 X15.854 Y46.13 E17.31384
G1 X16.273 Y45.291 E17.34504
G1 X16.763 Y44.491 E17.37624
G1 X17.319 Y43.736 E17.40742
G1 X17.884 Y43.087 E17.43604
G1 X18.324 Y42.627 E17.45722
G1 X42.476 Y18.476 E18.59323
M204 S2000
G0 F7500 X42.755 Y18.763
M204 S500
G1 F1500 X43.236 Y18.295 E18.61555
G1 X43.923 Y17.682 E18.64617
G1 X44.661 Y17.131 E18.67681
G1 X45.444 Y16.646 E18.70744
G1 X46.265 Y16.231 E18.73804
G1 X47.12 Y15.889 E18.76866
G1 X48.001 Y15.623 E18.79927
G1 X48.902 Y15.433 E18.8299
G1 X49.816 Y15.323 E18.86052
G1 X50.736 Y15.293 E18.89113
G1 X51.656 Y15.342 E18.92178
G1 X52.567 Y15.471 E18.95238
G1 X53.464 Y15.679 E18.98301
G1 X54.34 Y15.963 E19.01363
G1 X55.187 Y16.323 E19.04424
G1 X56.001 Y16.754 E19.07488
G1 X56.773 Y17.255 E19.10549
G1 X57.499 Y17.821 E19.13611
G1 X57.883 Y18.164 E19.15323
G1 X58.352 Y18.612 E19.1748
G1 X206.237 Y166.498 E26.13088
G1 X206.705 Y166.979 E26.15321
G1 X207.318 Y167.666 E26.18383
G1 X207.869 Y168.404 E26.21446
G1 X208.354 Y169.187 E26.2451
G1 X208.769 Y170.008 E26.27569
G1 X209.111 Y170.863 E26.30632
G1 X209.377 Y171.744 E26.33693
G1 X209.567 Y172.645 E26.36756
G1 X209.677 Y173.559 E26.39817
G1 X209.707 Y174.479 E26.42879
G1 X209.658 Y175.399 E26.45943
G1 X209.529 Y176.31 E26.49004
G1 X209.321 Y177.207 E26.52066
G1 X209.037 Y178.083 E26.55129
G1 X208.677 Y178.93 E26.5819
G1 X208.246 Y179.744 E26.61254
G1 X207.745 Y180.516 E26.64315
G1 X207.179 Y181.242 E26.67376
G1 X206.841 Y181.621 E26.69065
G1 X206.393 Y182.09 E26.71223
G1 X182.255 Y206.228 E27.8476
G1 X181.766 Y206.704 E27.8703
G1 X181.079 Y207.317 E27.90092
G1 X180.341 Y207.868 E27.93156
G1 X179.559 Y208.352 E27.96214
G1 X178.737 Y208.768 E27.99279
G1 X177.882 Y209.11 E28.02341
G1 X177.001 Y209.377 E28.05403
G1 X176.1 Y209.566 E28.08465
G1 X175.186 Y209.677 E28.11528
G1 X174.266 Y209.707 E28.14589
G1 X173.347 Y209.658 E28.1765
G1 X172.435 Y209.53 E28.20713
G1 X171.538 Y209.322 E28.23776
G1 X170.662 Y209.038 E28.26839
G1 X169.815 Y208.678 E28.299
G1 X169.002 Y208.247 E28.3296
G1 X168.229 Y207.746 E28.36024
G1 X167.502 Y207.181 E28.39086
G1 X167.075 Y206.796 E28.40999
G1 X166.641 Y206.379 E28.43
G1 X18.77 Y58.508 E35.3854
G1 X18.302 Y58.028 E35.4077
G1 X17.689 Y57.341 E35.43832
G1 X17.137 Y56.604 E35.46895
G1 X16.652 Y55.822 E35.49955
G1 X16.236 Y55.001 E35.53017
G1 X15.893 Y54.146 E35.56081
G1 X15.625 Y53.265 E35.59143
G1 X15.435 Y52.365 E35.62203
G1 X15.324 Y51.451 E35.65265
G1 X15.292 Y50.531 E35.68327
G1 X15.341 Y49.611 E35.71391
G1 X15.469 Y48.699 E35.74454
G1 X15.676 Y47.802 E35.77516
G1 X15.959 Y46.926 E35.80578
G1 X16.318 Y46.079 E35.83638
G1 X16.749 Y45.265 E35.86701
G1 X17.249 Y44.492 E35.89763
G1 X17.814 Y43.765 E35.92826
G1 X18.175 Y43.361 E35.94628
G1 X18.607 Y42.91 E35.96705
G1 X42.755 Y18.763 E37.10287
M204 S2000
G0 F7500 X43.034 Y19.049
M204 S500
G1 F1500 X43.515 Y18.581 E37.12519
G1 X44.19 Y17.981 E37.15523
G1 X44.915 Y17.442 E37.18528
G1 X45.684 Y16.97 E37.21529
G1 X46.493 Y16.568 E37.24533
G1 X47.334 Y16.239 E37.27537
G1 X48.201 Y15.985 E37.30542
G1 X49.086 Y15.809 E37.33543
G1 X49.984 Y15.712 E37.36547
G1 X50.887 Y15.695 E37.39551
G1 X51.788 Y15.758 E37.42555
G1 X52.68 Y15.901 E37.4556
G1 X53.556 Y16.121 E37.48564
G1 X54.408 Y16.418 E37.51565
G1 X55.232 Y16.79 E37.54572
G1 X56.019 Y17.233 E37.57576
G1 X56.763 Y17.744 E37.60578
G1 X57.61 Y18.456 E37.64258
G1 X58.069 Y18.895 E37.6637
G1 X205.951 Y166.777 E44.61962
G1 X206.419 Y167.258 E44.64194
G1 X207.019 Y167.933 E44.67198
G1 X207.558 Y168.658 E44.70203
G1 X208.03 Y169.427 E44.73204
G1 X208.432 Y170.236 E44.76208
G1 X208.761 Y171.077 E44.79212
G1 X209.015 Y171.944 E44.82217
G1 X209.191 Y172.829 E44.85218
G1 X209.288 Y173.727 E44.88222
G1 X209.305 Y174.63 E44.91226
G1 X209.242 Y175.531 E44.9423
G1 X209.099 Y176.423 E44.97235
G1 X208.879 Y177.299 E45.00239
G1 X208.582 Y178.151 E45.0324
G1 X208.21 Y178.975 E45.06247
G1 X207.767 Y179.762 E45.09251
G1 X207.256 Y180.506 E45.12253
G1 X206.549 Y181.347 E45.15907
G1 X206.11 Y181.807 E45.18022
G1 X181.976 Y205.941 E46.31541
G1 X181.487 Y206.417 E46.3381
G1 X180.812 Y207.018 E46.36816
G1 X180.087 Y207.556 E46.39819
G1 X179.318 Y208.029 E46.42822
G1 X178.509 Y208.431 E46.45827
G1 X177.668 Y208.761 E46.48831
G1 X176.802 Y209.014 E46.51832
G1 X175.916 Y209.19 E46.54837
G1 X175.018 Y209.288 E46.57841
G1 X174.115 Y209.305 E46.60845
G1 X173.214 Y209.242 E46.63849
G1 X172.322 Y209.1 E46.66853
G1 X171.447 Y208.879 E46.69855
G1 X170.594 Y208.582 E46.72859
G1 X169.77 Y208.211 E46.75865
G1 X168.983 Y207.768 E46.78868
G1 X168.238 Y207.258 E46.81871
G1 X167.35 Y206.506 E46.85742
G1 X166.924 Y206.096 E46.87708
G1 X19.057 Y58.229 E53.83229
G1 X18.589 Y57.749 E53.85459
G1 X17.988 Y57.075 E53.88462
G1 X17.448 Y56.35 E53.91469
G1 X16.975 Y55.581 E53.94472
G1 X16.572 Y54.773 E53.97475
G1 X16.242 Y53.932 E54.0048
G1 X15.988 Y53.066 E54.03482
G1 X15.811 Y52.18 E54.06487
G1 X15.713 Y51.282 E54.09491
G1 X15.695 Y50.379 E54.12495
G1 X15.757 Y49.478 E54.15499
G1 X15.898 Y48.586 E54.18503
G1 X16.118 Y47.71 E54.21507
G1 X16.415 Y46.857 E54.24511
G1 X16.785 Y46.034 E54.27512
G1 X17.227 Y45.246 E54.30517
G1 X17.737 Y44.501 E54.3352
G1 X18.466 Y43.635 E54.37285
G1 X18.89 Y43.193 E54.39322
G1 X43.034 Y19.049 E55.52888
M204 S2000
G1 F2400 E54.72888
;MESH:screwdriver-holder.stl
G0 F7500 X49.603 Y34.609
G0 X51.926 Y39.448
M204 S500
;TYPE:WALL-INNER
G1 F2400 E55.52888
G1 F1500 X51.626 Y39.594 E55.53998
G1 X51.307 Y39.705 E55.55121
G1 X50.973 Y39.77 E55.56253
G1 X50.654 Y39.793 E55.57317
G1 X50.299 Y39.772 E55.58499
G1 X49.96 Y39.707 E55.59647
G1 X49.669 Y39.609 E55.60669
G1 X49.341 Y39.452 E55.61878
G1 X49.066 Y39.274 E55.62968
G1 X48.792 Y39.034 E55.64179
G1 X48.56 Y38.777 E55.65331
G1 X48.356 Y38.457 E55.66593
G1 X48.212 Y38.152 E55.67715
G1 X48.105 Y37.825 E55.68859
G1 X48.055 Y37.567 E55.69733
G1 X48.029 Y37.234 E55.70844
G1 X48.029 Y37.154 E55.7111
G1 X48.055 Y36.819 E55.72228
G1 X48.105 Y36.561 E55.73102
G1 X48.212 Y36.234 E55.74246
G1 X48.356 Y35.929 E55.75368
G1 X48.554 Y35.621 E55.76586
G1 X48.898 Y35.231 E55.78315
G1 X49.322 Y34.942 E55.80022
G1 X49.662 Y34.78 E55.81275
G1 X49.988 Y34.673 E55.82416
G1 X50.322 Y34.612 E55.83545
G1 X50.625 Y34.592 E55.84555
G1 X50.995 Y34.62 E55.85789
G1 X51.337 Y34.692 E55.86952
G1 X51.657 Y34.806 E55.88082
G1 X51.945 Y34.952 E55.89156
G1 X52.197 Y35.116 E55.90156
G1 X52.466 Y35.353 E55.91348
G1 X52.703 Y35.629 E55.92558
G1 X52.88 Y35.888 E55.93601
G1 X53.043 Y36.23 E55.94861
G1 X53.149 Y36.557 E55.96005
G1 X53.21 Y36.894 E55.97144
G1 X53.227 Y37.232 E55.98269
G1 X53.201 Y37.567 E55.99387
G1 X53.151 Y37.825 E56.00261
G1 X53.044 Y38.152 E56.01405
G1 X52.903 Y38.451 E56.02505
G1 X52.719 Y38.74 E56.03645
G1 X52.493 Y39.005 E56.04803
G1 X52.248 Y39.228 E56.05905
G1 X51.926 Y39.448 E56.07202
M204 S2000
G0 F7500 X51.463 Y39.228
M204 S500
;TYPE:WALL-OUTER
G1 F1500 X51.192 Y39.321 E56.08155
G1 X50.919 Y39.374 E56.0908
G1 X50.646 Y39.393 E56.0999
G1 X50.349 Y39.375 E56.1098
G1 X50.062 Y39.32 E56.11952
G1 X49.799 Y39.231 E56.12875
G1 X49.528 Y39.098 E56.13879
G1 X49.276 Y38.932 E56.14883
G1 X49.075 Y38.751 E56.15782
G1 X48.889 Y38.544 E56.16708
G1 X48.729 Y38.305 E56.17665
G1 X48.59 Y38.022 E56.18713
G1 X48.505 Y37.776 E56.19579
G1 X48.448 Y37.491 E56.20546
G1 X48.428 Y37.208 E56.21489
G1 X48.448 Y36.895 E56.22532
G1 X48.505 Y36.61 E56.23499
G1 X48.59 Y36.364 E56.24365
G1 X48.729 Y36.081 E56.25413
G1 X48.882 Y35.851 E56.26332
G1 X49.154 Y35.545 E56.27694
G1 X49.534 Y35.284 E56.29227
G1 X49.772 Y35.167 E56.30109
G1 X50.065 Y35.065 E56.31141
G1 X50.325 Y35.014 E56.32022
G1 X50.625 Y34.992 E56.33023
G1 X50.92 Y35.013 E56.34006
G1 X51.208 Y35.07 E56.34983
G1 X51.481 Y35.165 E56.35944
G1 X51.707 Y35.276 E56.36782
G1 X51.967 Y35.444 E56.37811
G1 X52.183 Y35.636 E56.38773
G1 X52.373 Y35.855 E56.39737
G1 X52.526 Y36.079 E56.40639
G1 X52.665 Y36.361 E56.41685
G1 X52.75 Y36.607 E56.42551
G1 X52.808 Y36.895 E56.43528
G1 X52.828 Y37.206 E56.44564
G1 X52.808 Y37.491 E56.45514
G1 X52.751 Y37.776 E56.46481
G1 X52.666 Y38.022 E56.47347
G1 X52.531 Y38.298 E56.48369
G1 X52.385 Y38.52 E56.49252
G1 X52.176 Y38.757 E56.50303
G1 X51.961 Y38.946 E56.51256
G1 X51.741 Y39.093 E56.52136
G1 X51.463 Y39.228 E56.53163
M204 S2000
G1 F2400 E55.73163
G0 F7500 X51.559 Y39.512
G0 X50.322 Y39.956
G0 X39.956 Y50.32
G0 X37.876 Y53.14
M204 S500
;TYPE:WALL-INNER
G1 F2400 E56.53163
G1 F1500 X37.499 Y53.209 E56.54438
G1 X37.157 Y53.227 E56.55577
G1 X36.826 Y53.201 E56.56682
G1 X36.483 Y53.129 E56.57847
G1 X36.166 Y53.016 E56.58967
G1 X35.939 Y52.905 E56.59807
G1 X35.625 Y52.705 E56.61045
G1 X35.357 Y52.469 E56.62233
G1 X35.156 Y52.246 E56.63231
G1 X34.96 Y51.961 E56.64382
G1 X34.805 Y51.656 E56.6552
G1 X34.692 Y51.341 E56.66633
G1 X34.62 Y51.002 E56.67786
G1 X34.594 Y50.669 E56.68896
G1 X34.594 Y50.589 E56.69163
G1 X34.62 Y50.254 E56.7028
G1 X34.67 Y49.997 E56.71151
G1 X34.777 Y49.669 E56.72298
G1 X34.921 Y49.364 E56.7342
G1 X35.119 Y49.056 E56.74638
G1 X35.463 Y48.666 E56.76368
G1 X35.887 Y48.377 E56.78074
G1 X36.227 Y48.215 E56.79327
G1 X36.508 Y48.116 E56.80318
G1 X36.887 Y48.047 E56.81599
G1 X37.229 Y48.029 E56.82738
G1 X37.56 Y48.055 E56.83843
G1 X37.903 Y48.127 E56.85008
G1 X38.22 Y48.24 E56.86128
G1 X38.447 Y48.351 E56.86968
G1 X38.784 Y48.564 E56.88294
G1 X39.031 Y48.788 E56.89403
G1 X39.247 Y49.035 E56.90494
G1 X39.429 Y49.299 E56.91561
G1 X39.58 Y49.598 E56.92675
G1 X39.706 Y49.955 E56.93934
G1 X39.772 Y50.294 E56.95083
G1 X39.793 Y50.609 E56.96133
G1 X39.771 Y50.968 E56.97329
G1 X39.712 Y51.275 E56.98369
G1 X39.609 Y51.588 E56.99465
G1 X39.447 Y51.926 E57.00712
G1 X39.26 Y52.209 E57.0184
G1 X39.058 Y52.44 E57.0286
G1 X38.783 Y52.69 E57.04097
G1 X38.457 Y52.9 E57.05386
G1 X38.159 Y53.041 E57.06483
G1 X37.876 Y53.14 E57.0748
M204 S2000
G0 F7500 X37.757 Y52.756
M204 S500
;TYPE:WALL-OUTER
G1 F1500 X37.496 Y52.807 E57.08365
G1 X37.183 Y52.828 E57.09408
G1 X36.901 Y52.808 E57.10348
G1 X36.613 Y52.751 E57.11325
G1 X36.365 Y52.666 E57.12197
G1 X36.093 Y52.533 E57.13204
G1 X35.855 Y52.377 E57.1415
G1 X35.632 Y52.178 E57.15144
G1 X35.454 Y51.979 E57.16032
G1 X35.294 Y51.74 E57.16989
G1 X35.155 Y51.458 E57.18035
G1 X35.07 Y51.211 E57.18903
G1 X35.013 Y50.926 E57.1987
G1 X34.993 Y50.643 E57.20814
G1 X35.013 Y50.33 E57.21857
G1 X35.07 Y50.046 E57.2282
G1 X35.155 Y49.799 E57.23689
G1 X35.294 Y49.516 E57.24738
G1 X35.447 Y49.286 E57.25656
G1 X35.719 Y48.98 E57.27018
G1 X36.099 Y48.719 E57.28551
G1 X36.337 Y48.602 E57.29434
G1 X36.629 Y48.5 E57.30462
G1 X36.89 Y48.449 E57.31347
G1 X37.203 Y48.428 E57.3239
G1 X37.485 Y48.448 E57.3333
G1 X37.773 Y48.505 E57.34307
G1 X38.021 Y48.59 E57.35179
G1 X38.271 Y48.711 E57.36103
G1 X38.551 Y48.894 E57.37215
G1 X38.748 Y49.071 E57.38096
G1 X38.931 Y49.28 E57.3902
G1 X39.1 Y49.528 E57.40018
G1 X39.23 Y49.796 E57.41009
G1 X39.319 Y50.057 E57.41926
G1 X39.375 Y50.344 E57.42899
G1 X39.393 Y50.641 E57.43888
G1 X39.375 Y50.914 E57.44798
G1 X39.316 Y51.211 E57.45805
G1 X39.231 Y51.458 E57.46674
G1 X39.092 Y51.74 E57.4772
G1 X38.942 Y51.967 E57.48625
G1 X38.741 Y52.192 E57.49628
G1 X38.525 Y52.381 E57.50583
G1 X38.282 Y52.54 E57.51549
G1 X38.027 Y52.663 E57.5249
G1 X37.757 Y52.756 E57.5344
M204 S2000
G1 F2400 E56.7344
G0 F7500 X37.814 Y53.05
G0 X38.536 Y53.063
G0 X171.592 Y187.861
G0 X171.956 Y188.766
M204 S500
;TYPE:WALL-INNER
G1 F2400 E57.5344
G1 F1500 X171.849 Y188.439 E57.54585
G1 X171.799 Y188.181 E57.55459
G1 X171.773 Y187.848 E57.5657
G1 X171.773 Y187.768 E57.56836
G1 X171.799 Y187.433 E57.57953
G1 X171.849 Y187.175 E57.58827
G1 X171.956 Y186.848 E57.59972
G1 X172.1 Y186.543 E57.61093
G1 X172.303 Y186.225 E57.62348
G1 X172.558 Y185.944 E57.6361
G1 X172.786 Y185.744 E57.64619
G1 X173.101 Y185.539 E57.65869
G1 X173.405 Y185.394 E57.66989
G1 X173.693 Y185.295 E57.68002
G1 X174.027 Y185.23 E57.69134
G1 X174.346 Y185.207 E57.70198
G1 X174.701 Y185.228 E57.71381
G1 X175.04 Y185.293 E57.72529
G1 X175.399 Y185.419 E57.73794
G1 X175.658 Y185.547 E57.74755
G1 X175.943 Y185.732 E57.75885
G1 X176.204 Y185.962 E57.77042
G1 X176.409 Y186.189 E57.78059
G1 X176.63 Y186.509 E57.79353
G1 X176.787 Y186.845 E57.80586
G1 X176.893 Y187.171 E57.81727
G1 X176.954 Y187.508 E57.82866
G1 X176.971 Y187.846 E57.83991
G1 X176.945 Y188.181 E57.85109
G1 X176.895 Y188.439 E57.85983
G1 X176.788 Y188.766 E57.87127
G1 X176.644 Y189.071 E57.88249
G1 X176.446 Y189.379 E57.89467
G1 X176.102 Y189.769 E57.91197
G1 X175.678 Y190.058 E57.92903
G1 X175.336 Y190.221 E57.94163
G1 X175.007 Y190.328 E57.95314
G1 X174.678 Y190.388 E57.96426
G1 X174.336 Y190.406 E57.97565
G1 X174.005 Y190.38 E57.9867
G1 X173.663 Y190.308 E57.99832
G1 X173.343 Y190.194 E58.00962
G1 X173.055 Y190.048 E58.02036
G1 X172.803 Y189.884 E58.03036
G1 X172.409 Y189.535 E58.04787
G1 X172.118 Y189.109 E58.06502
G1 X171.956 Y188.766 E58.07764
M204 S2000
G0 F7500 X172.474 Y188.921
M204 S500
;TYPE:WALL-OUTER
G1 F1500 X172.334 Y188.636 E58.0882
