;FLAVOR:Marlin
;TIME:20339
;Filament used: 15.6815m
;Layer height: 0.2
;MINX:7.821
;MINY:7.821
;MINZ:0.2
;MAXX:217.179
;MAXY:217.179
;MAXZ:40
;Generated with Cura_SteamEngine 5.3.0-alpha+cura_9879_88
M82 ;absolute extrusion mode
; Ender 3 S1 Start G-code
G92 E0 ; Reset Extruder
G28 ; Home all axes

; M420 S1 ; Load bed level mesh

G1 Z10.0 F3000 ; Move Z Axis up little to prevent scratching of Heat Bed
G1 X0 Y0

M104 S200
M190 S60
M109 S200

G1 X0.1 Y20 Z0.3 F5000.0 ; Move to start position
G1 X0.1 Y200.0 Z0.3 F1500.0 E15 ; Draw the first line
G1 X0.4 Y200.0 Z0.3 F5000.0 ; Move to side a little
G1 X0.4 Y20 Z0.3 F1500.0 E30 ; Draw the second line
G92 E0 ; Reset Extruder
G1 Z2.0 F3000 ; Move Z Axis up little to prevent scratching of Heat Bed
G1 X5 Y20 Z0.3 F5000.0 ; Move over to prevent blob squish
G92 E0
G92 E0
G1 F2400 E-0.8
;LAYER_COUNT:200
;LAYER:0
M107
M204 S2000
G0 F7500 X35.405 Y11.405 Z0.2
M204 S500
;TYPE:SKIRT
G1 F2400 E0
G1 F1500 X35.886 Y10.937 E0.02232
G1 X36.586 Y10.312 E0.05353
G1 X37.336 Y9.749 E0.08472
G1 X38.131 Y9.252 E0.11591
G1 X38.966 Y8.825 E0.1471
G1 X39.834 Y8.47 E0.17829
G1 X40.729 Y8.191 E0.20947
G1 X41.645 Y7.988 E0.24068
G1 X42.575 Y7.865 E0.27188
G1 X43.512 Y7.821 E0.30308
G1 X44.449 Y7.857 E0.33427
G1 X45.38 Y7.973 E0.36547
G1 X46.297 Y8.168 E0.39665
G1 X47.195 Y8.44 E0.42786
G1 X48.066 Y8.787 E0.45904
G1 X48.904 Y9.208 E0.49024
G1 X49.703 Y9.698 E0.52141
G1 X50.458 Y10.255 E0.55262
G1 X51.086 Y10.802 E0.58032
G1 X51.564 Y11.258 E0.60229
G1 X213.595 Y173.29 E8.22375
G1 X214.063 Y173.771 E8.24607
G1 X214.688 Y174.471 E8.27729
G1 X215.251 Y175.221 E8.30848
G1 X215.748 Y176.016 E8.33966
G1 X216.175 Y176.851 E8.37085
G1 X216.53 Y177.719 E8.40204
G1 X216.809 Y178.614 E8.43322
G1 X217.012 Y179.53 E8.46443
G1 X217.135 Y180.46 E8.49563
G1 X217.179 Y181.397 E8.52683
G1 X217.143 Y182.334 E8.55802
G1 X217.027 Y183.265 E8.58922
G1 X216.832 Y184.182 E8.6204
G1 X216.56 Y185.08 E8.65161
G1 X216.213 Y185.951 E8.6828
G1 X215.792 Y186.789 E8.71399
G1 X215.302 Y187.588 E8.74516
G1 X214.745 Y188.343 E8.77637
G1 X214.204 Y188.965 E8.80379
G1 X213.747 Y189.444 E8.82581
G1 X189.605 Y213.585 E9.96135
G1 X189.116 Y214.061 E9.98404
G1 X188.416 Y214.686 E10.01526
G1 X187.666 Y215.249 E10.04645
G1 X186.871 Y215.746 E10.07763
G1 X186.036 Y216.174 E10.10884
G1 X185.168 Y216.529 E10.14003
G1 X184.273 Y216.809 E10.17122
G1 X183.357 Y217.011 E10.20242
G1 X182.428 Y217.135 E10.23359
G1 X181.491 Y217.179 E10.26479
G1 X180.554 Y217.143 E10.29598
G1 X179.623 Y217.027 E10.32718
G1 X178.705 Y216.833 E10.35839
G1 X177.808 Y216.561 E10.38957
G1 X176.937 Y216.214 E10.42075
G1 X176.098 Y215.793 E10.45197
G1 X175.299 Y215.303 E10.48315
G1 X174.544 Y214.746 E10.51435
G1 X173.87 Y214.157 E10.54412
G1 X173.429 Y213.733 E10.56447
G1 X11.413 Y51.716 E18.18523
G1 X10.945 Y51.236 E18.20753
G1 X10.319 Y50.537 E18.23874
G1 X9.756 Y49.788 E18.2699
G1 X9.258 Y48.993 E18.3011
G1 X8.83 Y48.159 E18.33228
G1 X8.474 Y47.291 E18.36348
G1 X8.194 Y46.396 E18.39467
G1 X7.99 Y45.48 E18.42589
G1 X7.866 Y44.551 E18.45706
G1 X7.821 Y43.614 E18.48826
G1 X7.856 Y42.677 E18.51945
G1 X7.971 Y41.746 E18.55065
G1 X8.165 Y40.828 E18.58185
G1 X8.436 Y39.93 E18.61305
G1 X8.783 Y39.059 E18.64424
G1 X9.202 Y38.22 E18.67543
G1 X9.692 Y37.42 E18.70663
G1 X10.248 Y36.665 E18.73782
G1 X10.813 Y36.016 E18.76644
G1 X11.253 Y35.556 E18.78761
G1 X35.405 Y11.405 E19.92362
M204 S2000
G0 F7500 X35.684 Y11.692
M204 S500
G1 F1500 X36.165 Y11.224 E19.94594
G1 X36.852 Y10.611 E19.97657
G1 X37.59 Y10.06 E20.0072
G1 X38.373 Y9.575 E20.03783
G1 X39.194 Y9.16 E20.06843
G1 X40.049 Y8.818 E20.09906
G1 X40.93 Y8.552 E20.12967
G1 X41.831 Y8.362 E20.16029
G1 X42.745 Y8.252 E20.19091
G1 X43.665 Y8.222 E20.22153
G1 X44.585 Y8.271 E20.25217
G1 X45.496 Y8.4 E20.28277
G1 X46.393 Y8.608 E20.3134
G1 X47.269 Y8.892 E20.34403
G1 X48.116 Y9.252 E20.37464
G1 X48.93 Y9.683 E20.40527
G1 X49.702 Y10.184 E20.43588
G1 X50.428 Y10.75 E20.4665
G1 X50.812 Y11.093 E20.48362
G1 X51.281 Y11.541 E20.5052
G1 X213.308 Y173.569 E28.12647
G1 X213.776 Y174.05 E28.14879
G1 X214.389 Y174.737 E28.17942
G1 X214.94 Y175.475 E28.21005
G1 X215.425 Y176.258 E28.24068
G1 X215.84 Y177.079 E28.27128
G1 X216.182 Y177.934 E28.30191
G1 X216.448 Y178.815 E28.33252
G1 X216.638 Y179.716 E28.36314
G1 X216.748 Y180.63 E28.39376
G1 X216.778 Y181.55 E28.42438
G1 X216.729 Y182.47 E28.45502
G1 X216.6 Y183.381 E28.48562
G1 X216.392 Y184.278 E28.51625
G1 X216.108 Y185.154 E28.54688
G1 X215.748 Y186.001 E28.57749
G1 X215.317 Y186.815 E28.60812
G1 X214.816 Y187.587 E28.63873
G1 X214.25 Y188.313 E28.66935
G1 X213.912 Y188.692 E28.68624
G1 X213.464 Y189.161 E28.70781
G1 X189.326 Y213.299 E29.84319
G1 X188.837 Y213.775 E29.86589
G1 X188.15 Y214.388 E29.89651
G1 X187.412 Y214.939 E29.92715
G1 X186.63 Y215.423 E29.95773
G1 X185.808 Y215.839 E29.98838
G1 X184.953 Y216.181 E30.019
G1 X184.072 Y216.448 E30.04962
G1 X183.171 Y216.637 E30.08024
G1 X182.257 Y216.748 E30.11086
G1 X181.337 Y216.778 E30.14148
G1 X180.418 Y216.729 E30.17209
G1 X179.506 Y216.601 E30.20272
G1 X178.609 Y216.393 E30.23335
G1 X177.733 Y216.109 E30.26397
G1 X176.886 Y215.749 E30.29458
G1 X176.073 Y215.318 E30.32519
G1 X175.3 Y214.817 E30.35583
G1 X174.573 Y214.252 E30.38645
G1 X174.146 Y213.867 E30.40557
G1 X173.712 Y213.45 E30.42559
G1 X11.699 Y51.437 E38.04619
G1 X11.231 Y50.957 E38.06848
G1 X10.618 Y50.27 E38.09911
G1 X10.066 Y49.533 E38.12973
G1 X9.581 Y48.751 E38.16034
G1 X9.165 Y47.93 E38.19095
G1 X8.822 Y47.075 E38.22159
G1 X8.554 Y46.194 E38.25222
G1 X8.364 Y45.294 E38.28281
G1 X8.253 Y44.38 E38.31344
G1 X8.221 Y43.46 E38.34405
G1 X8.27 Y42.54 E38.3747
G1 X8.398 Y41.628 E38.40533
G1 X8.605 Y40.731 E38.43595
G1 X8.888 Y39.855 E38.46657
G1 X9.247 Y39.008 E38.49716
G1 X9.678 Y38.194 E38.5278
G1 X10.178 Y37.421 E38.55842
G1 X10.743 Y36.694 E38.58904
G1 X11.104 Y36.29 E38.60706
G1 X11.536 Y35.839 E38.62783
G1 X35.684 Y11.692 E39.76366
M204 S2000
G0 F7500 X35.963 Y11.978
M204 S500
G1 F1500 X36.444 Y11.51 E39.78598
G1 X37.119 Y10.91 E39.81602
G1 X37.844 Y10.371 E39.84606
G1 X38.613 Y9.899 E39.87607
G1 X39.422 Y9.497 E39.90612
G1 X40.263 Y9.168 E39.93616
G1 X41.13 Y8.914 E39.9662
G1 X42.015 Y8.738 E39.99622
G1 X42.913 Y8.641 E40.02626
G1 X43.816 Y8.624 E40.0563
G1 X44.717 Y8.687 E40.08634
G1 X45.609 Y8.83 E40.11638
G1 X46.485 Y9.05 E40.14642
G1 X47.337 Y9.347 E40.17643
G1 X48.161 Y9.719 E40.2065
G1 X48.948 Y10.162 E40.23654
G1 X49.692 Y10.673 E40.26656
G1 X50.539 Y11.385 E40.30336
G1 X50.998 Y11.824 E40.32449
G1 X213.022 Y173.848 E47.9456
G1 X213.49 Y174.329 E47.96792
G1 X214.09 Y175.004 E47.99796
G1 X214.629 Y175.729 E48.02801
G1 X215.101 Y176.498 E48.05802
G1 X215.503 Y177.307 E48.08807
G1 X215.832 Y178.148 E48.1181
G1 X216.086 Y179.015 E48.14815
G1 X216.262 Y179.9 E48.17816
G1 X216.359 Y180.798 E48.2082
G1 X216.376 Y181.701 E48.23824
G1 X216.313 Y182.602 E48.26828
G1 X216.17 Y183.494 E48.29833
G1 X215.95 Y184.37 E48.32837
G1 X215.653 Y185.222 E48.35838
G1 X215.281 Y186.046 E48.38845
G1 X214.838 Y186.833 E48.41849
G1 X214.327 Y187.577 E48.44851
G1 X213.62 Y188.418 E48.48505
G1 X213.181 Y188.878 E48.5062
G1 X189.047 Y213.012 E49.64139
G1 X188.558 Y213.488 E49.66409
G1 X187.883 Y214.089 E49.69415
G1 X187.158 Y214.627 E49.72417
G1 X186.389 Y215.1 E49.7542
G1 X185.58 Y215.502 E49.78425
G1 X184.739 Y215.832 E49.8143
G1 X183.873 Y216.085 E49.8443
G1 X182.987 Y216.261 E49.87435
G1 X182.089 Y216.359 E49.90439
G1 X181.186 Y216.376 E49.93443
G1 X180.285 Y216.313 E49.96447
G1 X179.393 Y216.171 E49.99451
G1 X178.518 Y215.95 E50.02453
G1 X177.665 Y215.653 E50.05457
G1 X176.841 Y215.282 E50.08463
G1 X176.054 Y214.839 E50.11467
G1 X175.309 Y214.329 E50.14469
G1 X174.421 Y213.577 E50.1834
G1 X173.995 Y213.167 E50.20306
G1 X11.986 Y51.158 E57.82347
G1 X11.518 Y50.678 E57.84577
G1 X10.917 Y50.004 E57.8758
G1 X10.377 Y49.279 E57.90587
G1 X9.904 Y48.51 E57.9359
G1 X9.501 Y47.702 E57.96593
G1 X9.171 Y46.861 E57.99598
G1 X8.917 Y45.995 E58.02599
G1 X8.74 Y45.109 E58.05604
G1 X8.642 Y44.211 E58.08609
G1 X8.624 Y43.308 E58.11613
G1 X8.686 Y42.407 E58.14617
G1 X8.827 Y41.515 E58.1762
G1 X9.047 Y40.639 E58.20624
G1 X9.344 Y39.786 E58.23629
G1 X9.714 Y38.963 E58.2663
G1 X10.156 Y38.175 E58.29635
G1 X10.666 Y37.43 E58.32638
G1 X11.395 Y36.564 E58.36403
G1 X11.819 Y36.122 E58.3844
G1 X35.963 Y11.978 E59.52006
M204 S2000
G1 F2400 E58.72006
;MESH:pliers.stl
G0 F7500 X41.627 Y23.877
G0 X43.903 Y28.456
M204 S500
;TYPE:WALL-INNER
G1 F2400 E59.52006
G1 F1500 X43.583 Y28.479 E59.53073
G1 X43.222 Y28.458 E59.54276
G1 X42.899 Y28.396 E59.55369
G1 X42.597 Y28.295 E59.56429
G1 X42.223 Y28.111 E59.57815
G1 X41.944 Y27.919 E59.58941
G1 X41.748 Y27.747 E59.59809
G1 X41.481 Y27.443 E59.61154
G1 X41.285 Y27.144 E59.62344
G1 X41.141 Y26.839 E59.63465
G1 X41.034 Y26.511 E59.64613
G1 X40.984 Y26.253 E59.65487
G1 X40.958 Y25.92 E59.66598
G1 X40.958 Y25.84 E59.66864
G1 X40.984 Y25.512 E59.67958
G1 X41.055 Y25.174 E59.69107
G1 X41.169 Y24.852 E59.70243
G1 X41.317 Y24.56 E59.71332
G1 X41.474 Y24.321 E59.72283
G1 X41.716 Y24.041 E59.73514
G1 X42.004 Y23.794 E59.74776
G1 X42.289 Y23.61 E59.75904
G1 X42.591 Y23.467 E59.77016
G1 X42.833 Y23.382 E59.77869
G1 X43.177 Y23.308 E59.79039
G1 X43.551 Y23.276 E59.80287
G1 X43.932 Y23.307 E59.81559
G1 X44.274 Y23.38 E59.82722
G1 X44.517 Y23.464 E59.83577
G1 X44.82 Y23.606 E59.8469
G1 X45.274 Y23.901 E59.86491
G1 X45.589 Y24.259 E59.88077
G1 X45.785 Y24.539 E59.89214
G1 X45.944 Y24.849 E59.90372
G1 X46.057 Y25.164 E59.91486
G1 X46.13 Y25.504 E59.92642
G1 X46.159 Y25.878 E59.9389
G1 X46.13 Y26.246 E59.95118
G1 X46.059 Y26.585 E59.9627
G1 X45.944 Y26.908 E59.9741
G1 X45.833 Y27.134 E59.98247
G1 X45.627 Y27.459 E59.99527
G1 X45.289 Y27.835 E60.01209
G1 X44.86 Y28.134 E60.02948
G1 X44.523 Y28.292 E60.04186
G1 X44.281 Y28.377 E60.05039
G1 X43.903 Y28.456 E60.06323
M204 S2000
G0 F7500 X44.134 Y28.004
M204 S500
;TYPE:WALL-OUTER
G1 F1500 X43.849 Y28.06 E60.0729
G1 X43.575 Y28.079 E60.08203
G1 X43.278 Y28.062 E60.09192
G1 X42.971 Y28.001 E60.10234
G1 X42.728 Y27.917 E60.11089
G1 X42.445 Y27.778 E60.12137
G1 X42.208 Y27.618 E60.13088
G1 X41.993 Y27.427 E60.14045
G1 X41.812 Y27.218 E60.14965
G1 X41.659 Y26.993 E60.15869
G1 X41.519 Y26.709 E60.16923
G1 X41.434 Y26.462 E60.17791
G1 X41.377 Y26.177 E60.18758
G1 X41.357 Y25.894 E60.19702
G1 X41.377 Y25.587 E60.20725
G1 X41.433 Y25.303 E60.21688
G1 X41.519 Y25.051 E60.22573
G1 X41.652 Y24.779 E60.2358
G1 X41.815 Y24.534 E60.24559
G1 X41.999 Y24.324 E60.25488
G1 X42.208 Y24.141 E60.26412
G1 X42.463 Y23.97 E60.27433
G1 X42.723 Y23.845 E60.28392
G1 X42.993 Y23.752 E60.29342
G1 X43.254 Y23.701 E60.30227
G1 X43.538 Y23.679 E60.31174
G1 X43.855 Y23.7 E60.32231
G1 X44.143 Y23.758 E60.33208
G1 X44.408 Y23.851 E60.34142
G1 X44.646 Y23.966 E60.35021
G1 X45.022 Y24.219 E60.36529
G1 X45.302 Y24.541 E60.37948
G1 X45.455 Y24.765 E60.3885
G1 X45.594 Y25.047 E60.39896
G1 X45.679 Y25.294 E60.40764
G1 X45.737 Y25.581 E60.41738
G1 X45.757 Y25.892 E60.42775
G1 X45.737 Y26.171 E60.43705
G1 X45.681 Y26.456 E60.44671
G1 X45.585 Y26.732 E60.45643
G1 X45.462 Y26.979 E60.46561
G1 X45.299 Y27.226 E60.47545
G1 X45.03 Y27.533 E60.48903
G1 X44.671 Y27.778 E60.50348
G1 X44.411 Y27.906 E60.51312
G1 X44.134 Y28.004 E60.5229
M204 S2000
G1 F2400 E59.7229
G0 F7500 X44.224 Y28.495
G0 X43.199 Y28.637
G0 X28.63 Y43.958
G0 X27.214 Y45.79
M204 S500
;TYPE:WALL-INNER
G1 F2400 E60.5229
G1 F1500 X26.846 Y45.97 E60.53652
G1 X26.52 Y46.078 E60.54794
G1 X26.185 Y46.138 E60.55926
G1 X25.844 Y46.156 E60.57062
G1 X25.504 Y46.13 E60.58196
G1 X25.164 Y46.057 E60.59353
G1 X24.92 Y45.973 E60.60211
G1 X24.614 Y45.829 E60.61336
G1 X24.307 Y45.631 E60.62551
G1 X23.916 Y45.284 E60.6429
G1 X23.624 Y44.859 E60.66005
G1 X23.464 Y44.517 E60.67261
G1 X23.357 Y44.189 E60.68408
G1 X23.307 Y43.931 E60.69282
G1 X23.28 Y43.602 E60.7038
G1 X23.28 Y43.517 E60.70663
G1 X23.307 Y43.191 E60.71751
G1 X23.378 Y42.85 E60.72909
G1 X23.491 Y42.531 E60.74035
G1 X23.644 Y42.229 E60.75161
G1 X23.797 Y41.999 E60.7608
G1 X24.036 Y41.722 E60.77297
G1 X24.325 Y41.471 E60.7857
G1 X24.609 Y41.288 E60.79693
G1 X24.919 Y41.141 E60.80834
G1 X25.158 Y41.058 E60.81676
G1 X25.499 Y40.985 E60.82836
G1 X25.833 Y40.958 E60.8395
G1 X26.254 Y40.984 E60.85353
G1 X26.514 Y41.035 E60.86235
G1 X26.839 Y41.141 E60.87371
G1 X27.144 Y41.285 E60.88493
G1 X27.476 Y41.499 E60.89807
G1 X27.697 Y41.697 E60.90794
G1 X27.919 Y41.944 E60.91899
G1 X28.134 Y42.255 E60.93156
G1 X28.294 Y42.595 E60.94406
G1 X28.396 Y42.899 E60.95472
G1 X28.458 Y43.222 E60.96566
G1 X28.479 Y43.539 E60.97623
G1 X28.457 Y43.891 E60.98796
G1 X28.381 Y44.264 E61.00062
G1 X28.267 Y44.584 E61.01192
G1 X28.156 Y44.811 E61.02032
G1 X27.943 Y45.147 E61.03356
G1 X27.743 Y45.37 E61.04352
G1 X27.5 Y45.591 E61.05444
G1 X27.214 Y45.79 E61.06603
M204 S2000
G0 F7500 X26.992 Y45.457
M204 S500
;TYPE:WALL-OUTER
G1 F1500 X26.714 Y45.592 E61.07631
G1 X26.443 Y45.685 E61.08584
G1 X26.182 Y45.736 E61.09469
G1 X25.897 Y45.757 E61.10419
G1 X25.581 Y45.737 E61.11472
G1 X25.294 Y45.679 E61.12446
G1 X25.05 Y45.595 E61.13304
G1 X24.767 Y45.456 E61.14353
G1 X24.537 Y45.303 E61.15272
G1 X24.231 Y45.03 E61.16636
G1 X23.966 Y44.646 E61.18187
G1 X23.842 Y44.386 E61.19146
G1 X23.757 Y44.14 E61.20011
G1 X23.7 Y43.855 E61.20978
G1 X23.679 Y43.574 E61.21915
G1 X23.7 Y43.265 E61.22945
G1 X23.756 Y42.98 E61.23911
G1 X23.851 Y42.706 E61.24876
G1 X23.978 Y42.45 E61.25826
G1 X24.138 Y42.212 E61.2678
G1 X24.319 Y42.005 E61.27695
G1 X24.547 Y41.804 E61.28706
G1 X24.761 Y41.661 E61.29562
G1 X25.05 Y41.519 E61.30633
G1 X25.289 Y41.436 E61.31474
G1 X25.576 Y41.378 E61.32448
G1 X25.861 Y41.357 E61.33398
G1 X26.177 Y41.377 E61.34452
G1 X26.465 Y41.435 E61.35429
G1 X26.709 Y41.519 E61.36287
G1 X26.991 Y41.658 E61.37333
G1 X27.218 Y41.808 E61.38238
G1 X27.446 Y42.012 E61.39255
G1 X27.634 Y42.228 E61.40208
G1 X27.778 Y42.443 E61.41068
G1 X27.916 Y42.725 E61.42113
G1 X28.001 Y42.971 E61.42978
G1 X28.062 Y43.278 E61.44019
G1 X28.079 Y43.57 E61.44992
G1 X28.061 Y43.838 E61.45885
G1 X28.007 Y44.12 E61.4684
G1 X27.917 Y44.385 E61.47771
G1 X27.796 Y44.635 E61.48695
G1 X27.613 Y44.915 E61.49808
G1 X27.43 Y45.118 E61.50717
G1 X27.234 Y45.293 E61.51591
G1 X26.992 Y45.457 E61.52563
M204 S2000
G1 F2400 E60.72563
G0 F7500 X27.275 Y45.869
G0 X27.816 Y45.551
G0 X178.663 Y199.175
G0 X178.92 Y199.752
M204 S500
;TYPE:WALL-INNER
G1 F2400 E61.52563
G1 F1500 X178.87 Y199.495 E61.53434
G1 X178.844 Y199.162 E61.54545
G1 X178.844 Y199.082 E61.54811
G1 X178.87 Y198.754 E61.55905
G1 X178.941 Y198.415 E61.57057
G1 X179.056 Y198.092 E61.58197
G1 X179.167 Y197.866 E61.59035
G1 X179.371 Y197.544 E61.60303
G1 X179.707 Y197.162 E61.61995
G1 X180.135 Y196.871 E61.63716
G1 X180.477 Y196.708 E61.64976
G1 X180.719 Y196.623 E61.65829
G1 X181.097 Y196.544 E61.67114
G1 X181.435 Y196.52 E61.68241
G1 X181.778 Y196.542 E61.69384
G1 X182.101 Y196.604 E61.70478
G1 X182.403 Y196.705 E61.71537
G1 X182.777 Y196.889 E61.72923
G1 X183.056 Y197.081 E61.7405
G1 X183.308 Y197.31 E61.75182
G1 X183.517 Y197.555 E61.76253
G1 X183.702 Y197.826 E61.77345
G1 X183.858 Y198.158 E61.78565
G1 X183.965 Y198.486 E61.79712
G1 X184.016 Y198.746 E61.80594
G1 X184.045 Y199.12 E61.81841
G1 X184.016 Y199.488 E61.83069
G1 X183.945 Y199.826 E61.84218
G1 X183.831 Y200.148 E61.85354
G1 X183.683 Y200.44 E61.86443
G1 X183.526 Y200.679 E61.87394
G1 X183.284 Y200.959 E61.88625
G1 X183.06 Y201.157 E61.89619
G1 X182.754 Y201.37 E61.90859
G1 X182.409 Y201.533 E61.92128
G1 X182.167 Y201.618 E61.92981
G1 X181.823 Y201.692 E61.94152
G1 X181.449 Y201.724 E61.954
G1 X181.068 Y201.693 E61.96671
G1 X180.726 Y201.62 E61.97835
G1 X180.483 Y201.536 E61.9869
G1 X180.18 Y201.394 E61.99803
G1 X179.87 Y201.194 E62.0103
G1 X179.478 Y200.846 E62.02773
G1 X179.171 Y200.386 E62.04613
G1 X179.027 Y200.08 E62.05737
G1 X178.92 Y199.752 E62.06885
M204 S2000
G0 F7500 X179.32 Y199.703
M204 S500
;TYPE:WALL-OUTER
G1 F1500 X179.263 Y199.419 E62.07848
G1 X179.243 Y199.136 E62.08792
G1 X179.263 Y198.829 E62.09815
G1 X179.319 Y198.544 E62.10781
G1 X179.415 Y198.268 E62.11753
G1 X179.538 Y198.021 E62.12671
