;FLAVOR:Marlin
;TIME:6253
;Filament used: 4.25659m
;Layer height: 0.2
;MINX:46.5
;MINY:72.751
;MINZ:0.2
;MAXX:178.099
;MAXY:151.849
;MAXZ:6
;Generated with Cura_SteamEngine 5.3.0-alpha+cura_9879_88
M82 ;absolute extrusion mode
; Ender 3 S1 Start G-code
G92 E0 ; Reset Extruder
G28 ; Home all axes

; M420 S1 ; Load bed level mesh

G1 Z10.0 F3000 ; Move Z Axis up little to prevent scratching of Heat Bed
G1 X0 Y0

M104 S200
M190 S60
M109 S200

G1 X0.1 Y20 Z0.3 F5000.0 ; Move to start position
G1 X0.1 Y200.0 Z0.3 F1500.0 E15 ; Draw the first line
G1 X0.4 Y200.0 Z0.3 F5000.0 ; Move to side a little
G1 X0.4 Y20 Z0.3 F1500.0 E30 ; Draw the second line
G92 E0 ; Reset Extruder
G1 Z2.0 F3000 ; Move Z Axis up little to prevent scratching of Heat Bed
G1 X5 Y20 Z0.3 F5000.0 ; Move over to prevent blob squish
G92 E0
G92 E0
G1 F2400 E-0.8
;LAYER_COUNT:30
;LAYER:0
M107
M204 S2000
G0 F7500 X55.514 Y76.523 Z0.2
M204 S500
;TYPE:SKIRT
G1 F2400 E0
G1 F1500 X56.05 Y76.159 E0.02155
G1 X56.741 Y75.731 E0.04858
G1 X57.136 Y75.503 E0.06375
G1 X57.725 Y75.186 E0.086
G1 X58.525 Y74.787 E0.11573
G1 X59.162 Y74.491 E0.1391
G1 X59.685 Y74.27 E0.15798
G1 X60.438 Y73.987 E0.18474
G1 X60.897 Y73.831 E0.20086
G1 X61.574 Y73.625 E0.2244
G1 X62.505 Y73.374 E0.25647
G1 X63.569 Y73.143 E0.29268
G1 X64.552 Y72.98 E0.32582
G1 X65.574 Y72.859 E0.36005
G1 X66.464 Y72.796 E0.38973
G1 X67.311 Y72.76 E0.41792
G1 X67.696 Y72.753 E0.43073
G1 X84.806 Y72.751 E0.99981
G1 X85.694 Y72.763 E1.02935
G1 X86.784 Y72.834 E1.06568
G1 X87.201 Y72.882 E1.07964
G1 X88.127 Y73.029 E1.11083
G1 X89.038 Y73.254 E1.14204
G1 X89.608 Y73.438 E1.16196
G1 X90.041 Y73.591 E1.17723
G1 X90.911 Y73.941 E1.20842
G1 X91.748 Y74.364 E1.23961
G1 X92.294 Y74.691 E1.26078
G1 X93.071 Y75.189 E1.29148
G1 X94.793 Y76.339 E1.36035
G1 X96.946 Y77.691 E1.44491
G1 X99.091 Y78.954 E1.5277
G1 X101.312 Y80.18 E1.61208
G1 X103.54 Y81.328 E1.69544
G1 X105.821 Y82.423 E1.77959
G1 X108.11 Y83.443 E1.86294
G1 X110.437 Y84.402 E1.94665
G1 X112.808 Y85.302 E2.031
G1 X115.17 Y86.122 E2.11416
G1 X117.554 Y86.877 E2.19734
G1 X119.99 Y87.571 E2.28158
G1 X122.477 Y88.204 E2.36694
G1 X124.87 Y88.743 E2.44852
G1 X127.359 Y89.229 E2.53287
G1 X129.826 Y89.639 E2.61605
G1 X132.337 Y89.984 E2.70035
G1 X134.837 Y90.255 E2.78399
G1 X137.363 Y90.458 E2.86827
G1 X139.825 Y90.585 E2.95027
G1 X143.29 Y90.65 E3.06554
G1 X164.957 Y90.651 E3.78618
G1 X165.561 Y90.66 E3.80627
G1 X166.533 Y90.718 E3.83866
G1 X167.034 Y90.77 E3.85541
G1 X167.961 Y90.906 E3.88658
G1 X168.874 Y91.121 E3.91777
G1 X169.957 Y91.487 E3.95579
G1 X170.355 Y91.645 E3.97004
G1 X171.211 Y92.028 E4.00123
G1 X172.031 Y92.482 E4.0324
G1 X172.959 Y93.117 E4.0698
G1 X173.269 Y93.353 E4.08276
G1 X173.99 Y93.952 E4.11394
G1 X174.658 Y94.611 E4.14515
G1 X175.222 Y95.267 E4.17392
G1 X175.472 Y95.582 E4.1873
G1 X176.023 Y96.341 E4.21849
G1 X176.508 Y97.144 E4.24969
G1 X176.928 Y97.998 E4.28135
G1 X177.108 Y98.408 E4.29624
G1 X177.448 Y99.282 E4.32743
G1 X177.713 Y100.182 E4.35864
G1 X177.935 Y101.344 E4.39798
G1 X177.974 Y101.63 E4.40758
G1 X178.073 Y102.888 E4.44955
G1 X178.098 Y104.094 E4.48967
G1 X178.099 Y138.707 E5.64091
G1 X178.09 Y139.311 E5.661
G1 X178.034 Y140.265 E5.69278
G1 X177.983 Y140.764 E5.70947
G1 X177.848 Y141.693 E5.74069
G1 X177.634 Y142.606 E5.77188
G1 X177.259 Y143.718 E5.81091
G1 X177.1 Y144.117 E5.8252
G1 X176.716 Y144.973 E5.8564
G1 X176.26 Y145.793 E5.88761
G1 X175.644 Y146.694 E5.92391
G1 X175.408 Y147.005 E5.93689
G1 X174.809 Y147.728 E5.96812
G1 X174.152 Y148.396 E5.99929
G1 X173.483 Y148.972 E6.02865
G1 X173.168 Y149.222 E6.04202
G1 X172.409 Y149.773 E6.07322
G1 X171.606 Y150.258 E6.10442
G1 X170.74 Y150.683 E6.1365
G1 X170.331 Y150.862 E6.15135
G1 X169.457 Y151.201 E6.18253
G1 X168.557 Y151.465 E6.21373
G1 X167.429 Y151.681 E6.25193
G1 X167.14 Y151.721 E6.26163
G1 X165.86 Y151.823 E6.30434
G1 X164.656 Y151.848 E6.34439
G1 X60.043 Y151.849 E9.82384
G1 X59.439 Y151.84 E9.84393
G1 X58.467 Y151.782 E9.87631
G1 X57.966 Y151.73 E9.89307
G1 X57.039 Y151.594 E9.92423
G1 X56.126 Y151.379 E9.95543
G1 X55.034 Y151.009 E9.99377
G1 X54.637 Y150.851 E10.00799
G1 X53.782 Y150.468 E10.03915
G1 X52.962 Y150.013 E10.07034
G1 X52.056 Y149.394 E10.10683
G1 X51.745 Y149.158 E10.11982
G1 X51.022 Y148.559 E10.15104
G1 X50.354 Y147.902 E10.18221
G1 X49.778 Y147.233 E10.21157
G1 X49.528 Y146.918 E10.22495
G1 X48.977 Y146.159 E10.25614
G1 X48.492 Y145.356 E10.28734
G1 X48.072 Y144.502 E10.31899
G1 X47.892 Y144.092 E10.33389
G1 X47.552 Y143.218 E10.36508
G1 X47.287 Y142.318 E10.39628
G1 X47.065 Y141.156 E10.43563
G1 X47.026 Y140.87 E10.44523
G1 X46.927 Y139.612 E10.4872
G1 X46.902 Y138.406 E10.52732
G1 X46.9 Y106.206 E11.5983
G1 X46.863 Y103.597 E11.68508
G1 X46.758 Y101.124 E11.76741
G1 X46.634 Y99.523 E11.82082
G1 X46.626 Y99.301 E11.82821
G1 X46.535 Y97.98 E11.87225
G1 X46.51 Y97.369 E11.89259
G1 X46.5 Y96.541 E11.92013
G1 X46.502 Y94.248 E11.99639
G1 X46.514 Y93.398 E12.02467
G1 X46.531 Y92.931 E12.04021
G1 X46.565 Y92.331 E12.0602
G1 X46.637 Y91.552 E12.08622
G1 X46.761 Y90.586 E12.11861
G1 X46.959 Y89.489 E12.15569
G1 X47.185 Y88.52 E12.18878
G1 X47.463 Y87.536 E12.22279
G1 X47.748 Y86.682 E12.25273
G1 X47.957 Y86.099 E12.27333
G1 X48.196 Y85.509 E12.29451
G1 X48.517 Y84.801 E12.32036
G1 X48.738 Y84.35 E12.33707
G1 X49.068 Y83.727 E12.36051
G1 X49.504 Y82.965 E12.38971
G1 X49.88 Y82.348 E12.41375
G1 X50.191 Y81.877 E12.43252
G1 X50.628 Y81.269 E12.45742
G1 X50.931 Y80.872 E12.47403
G1 X51.402 Y80.296 E12.49878
G1 X52.04 Y79.568 E12.53098
G1 X52.786 Y78.797 E12.56666
G1 X53.501 Y78.126 E12.59927
G1 X54.291 Y77.451 E12.63383
G1 X54.988 Y76.911 E12.66316
G1 X55.514 Y76.523 E12.6849
M204 S2000
G0 F7500 X55.749 Y76.847
M204 S500
G1 F1500 X56.265 Y76.497 E12.70564
G1 X56.941 Y76.078 E12.73209
G1 X57.336 Y75.85 E12.74726
G1 X57.904 Y75.544 E12.76872
G1 X58.704 Y75.145 E12.79845
G1 X59.327 Y74.855 E12.82131
G1 X59.831 Y74.642 E12.8395
G1 X60.567 Y74.366 E12.86565
G1 X61.026 Y74.21 E12.88177
G1 X61.678 Y74.011 E12.90445
G1 X62.609 Y73.76 E12.93652
G1 X63.634 Y73.538 E12.9714
G1 X64.617 Y73.375 E13.00454
G1 X65.603 Y73.258 E13.03756
G1 X66.493 Y73.195 E13.06724
G1 X67.325 Y73.16 E13.09494
G1 X67.696 Y73.153 E13.10728
G1 X84.806 Y73.151 E13.67636
G1 X85.688 Y73.163 E13.7057
G1 X86.738 Y73.232 E13.7407
G1 X87.155 Y73.28 E13.75466
G1 X88.064 Y73.424 E13.78527
G1 X88.957 Y73.648 E13.81589
G1 X89.475 Y73.816 E13.834
G1 X89.908 Y73.969 E13.84928
G1 X90.761 Y74.313 E13.87987
G1 X91.582 Y74.73 E13.91049
G1 X92.079 Y75.028 E13.92977
G1 X92.665 Y75.402 E13.95289
G1 X94.563 Y76.667 E14.02875
G1 X96.721 Y78.022 E14.1135
G1 X98.89 Y79.3 E14.19724
G1 X101.115 Y80.528 E14.28176
G1 X103.405 Y81.707 E14.36743
G1 X105.622 Y82.772 E14.44924
G1 X107.973 Y83.819 E14.53483
G1 X110.279 Y84.77 E14.6178
G1 X112.672 Y85.678 E14.70293
G1 X115.067 Y86.51 E14.78725
G1 X117.429 Y87.258 E14.86966
G1 X119.886 Y87.958 E14.95463
G1 X122.362 Y88.588 E15.03961
G1 X124.811 Y89.139 E15.1231
G1 X127.288 Y89.623 E15.20704
G1 X129.772 Y90.036 E15.29079
G1 X132.28 Y90.381 E15.375
G1 X134.794 Y90.654 E15.4591
G1 X137.311 Y90.855 E15.54309
G1 X139.827 Y90.985 E15.62688
G1 X143.282 Y91.05 E15.74181
G1 X164.951 Y91.051 E16.46253
G1 X165.555 Y91.06 E16.48262
G1 X166.491 Y91.116 E16.51381
G1 X166.992 Y91.168 E16.53056
G1 X167.903 Y91.302 E16.56119
G1 X168.799 Y91.516 E16.59182
G1 X169.809 Y91.859 E16.6273
G1 X170.207 Y92.017 E16.64154
G1 X171.047 Y92.393 E16.67215
G1 X171.852 Y92.841 E16.7028
G1 X172.717 Y93.435 E16.7377
G1 X173.027 Y93.671 E16.75065
G1 X173.734 Y94.26 E16.78126
G1 X174.388 Y94.908 E16.81188
G1 X174.909 Y95.515 E16.83849
G1 X175.159 Y95.83 E16.85186
G1 X175.699 Y96.576 E16.88249
G1 X176.173 Y97.365 E16.91311
G1 X176.562 Y98.159 E16.94251
G1 X176.742 Y98.569 E16.95741
G1 X177.075 Y99.427 E16.98802
G1 X177.332 Y100.311 E17.01864
G1 X177.539 Y101.398 E17.05544
G1 X177.578 Y101.684 E17.06504
G1 X177.673 Y102.896 E17.10548
G1 X177.698 Y104.102 E17.1456
G1 X177.699 Y138.701 E18.29636
G1 X177.69 Y139.305 E18.31646
G1 X177.636 Y140.225 E18.34711
G1 X177.585 Y140.724 E18.36379
G1 X177.452 Y141.635 E18.39441
G1 X177.24 Y142.531 E18.42504
G1 X176.887 Y143.57 E18.46153
G1 X176.728 Y143.969 E18.47582
G1 X176.35 Y144.809 E18.50646
G1 X175.901 Y145.612 E18.53706
G1 X175.325 Y146.453 E18.57096
G1 X175.089 Y146.764 E18.58394
G1 X174.501 Y147.472 E18.61455
G1 X173.854 Y148.127 E18.64518
G1 X173.235 Y148.659 E18.67232
G1 X172.92 Y148.909 E18.6857
G1 X172.174 Y149.449 E18.71633
G1 X171.385 Y149.923 E18.74694
G1 X170.58 Y150.317 E18.77675
G1 X170.171 Y150.496 E18.7916
G1 X169.312 Y150.828 E18.82223
G1 X168.428 Y151.084 E18.85284
G1 X167.374 Y151.285 E18.88853
G1 X167.085 Y151.325 E18.89823
G1 X165.852 Y151.423 E18.93937
G1 X164.648 Y151.448 E18.97943
G1 X60.049 Y151.449 E22.4584
G1 X59.445 Y151.44 E22.47849
G1 X58.509 Y151.384 E22.50968
G1 X58.008 Y151.332 E22.52643
G1 X57.097 Y151.198 E22.55706
G1 X56.201 Y150.984 E22.5877
G1 X55.182 Y150.638 E22.62349
G1 X54.785 Y150.48 E22.6377
G1 X53.946 Y150.102 E22.66831
G1 X53.142 Y149.654 E22.69892
G1 X52.297 Y149.075 E22.73299
G1 X51.986 Y148.839 E22.74598
G1 X51.278 Y148.251 E22.77659
G1 X50.623 Y147.604 E22.80721
G1 X50.091 Y146.985 E22.83436
G1 X49.841 Y146.67 E22.84773
G1 X49.301 Y145.924 E22.87836
G1 X48.827 Y145.135 E22.90898
G1 X48.438 Y144.341 E22.93838
G1 X48.258 Y143.931 E22.95328
G1 X47.925 Y143.073 E22.98389
G1 X47.668 Y142.189 E23.01451
G1 X47.461 Y141.102 E23.05131
G1 X47.422 Y140.816 E23.06091
G1 X47.327 Y139.604 E23.10135
G1 X47.302 Y138.398 E23.14147
G1 X47.3 Y106.2 E24.21238
G1 X47.263 Y103.575 E24.29969
G1 X47.158 Y101.104 E24.38195
G1 X47.033 Y99.492 E24.43573
G1 X47.026 Y99.281 E24.44275
G1 X46.934 Y97.953 E24.48703
G1 X46.91 Y97.364 E24.50663
G1 X46.9 Y96.541 E24.53401
G1 X46.902 Y94.253 E24.61011
G1 X46.914 Y93.403 E24.63838
G1 X46.93 Y92.953 E24.65336
G1 X46.964 Y92.353 E24.67334
G1 X47.033 Y91.603 E24.6984
G1 X47.157 Y90.637 E24.73079
G1 X47.348 Y89.579 E24.76655
G1 X47.574 Y88.61 E24.79964
G1 X47.842 Y87.662 E24.83241
G1 X48.127 Y86.808 E24.86235
G1 X48.332 Y86.238 E24.8825
G1 X48.562 Y85.67 E24.90288
G1 X48.876 Y84.977 E24.92818
G1 X49.097 Y84.526 E24.94489
G1 X49.416 Y83.926 E24.96749
G1 X49.852 Y83.164 E24.99669
G1 X50.219 Y82.56 E25.0202
G1 X50.519 Y82.106 E25.0383
G1 X50.946 Y81.512 E25.06263
G1 X51.249 Y81.115 E25.07924
G1 X51.703 Y80.56 E25.10309
G1 X52.341 Y79.832 E25.13528
G1 X53.059 Y79.089 E25.16965
G1 X53.774 Y78.418 E25.20226
G1 X54.536 Y77.768 E25.23557
G1 X55.233 Y77.228 E25.2649
G1 X55.749 Y76.847 E25.28623
M204 S2000
G0 F7500 X55.983 Y77.171
M204 S500
G1 F1500 X56.48 Y76.834 E25.3062
G1 X57.141 Y76.424 E25.33208
G1 X57.536 Y76.196 E25.34725
G1 X58.083 Y75.902 E25.3679
G1 X58.883 Y75.503 E25.39763
G1 X59.492 Y75.219 E25.41998
G1 X59.977 Y75.015 E25.43748
G1 X60.696 Y74.745 E25.46303
G1 X61.155 Y74.589 E25.47915
G1 X61.782 Y74.398 E25.50095
G1 X62.713 Y74.147 E25.53302
G1 X63.699 Y73.932 E25.56659
G1 X64.682 Y73.769 E25.59973
G1 X65.631 Y73.657 E25.63151
G1 X66.521 Y73.594 E25.66119
G1 X67.339 Y73.559 E25.68842
G1 X67.696 Y73.553 E25.70029
G1 X84.806 Y73.551 E26.26938
G1 X85.682 Y73.563 E26.29851
G1 X86.692 Y73.629 E26.33218
G1 X87.109 Y73.677 E26.34614
G1 X88.001 Y73.82 E26.37619
G1 X88.877 Y74.041 E26.40624
G1 X89.341 Y74.193 E26.42248
G1 X89.774 Y74.346 E26.43775
G1 X90.612 Y74.684 E26.4678
G1 X91.416 Y75.095 E26.49784
G1 X91.864 Y75.365 E26.51523
G1 X92.626 Y75.854 E26.54535
G1 X94.375 Y77.022 E26.6153
G1 X96.511 Y78.363 E26.69918
G1 X98.715 Y79.661 E26.78426
G1 X100.917 Y80.876 E26.8679
G1 X103.184 Y82.045 E26.95274
G1 X105.493 Y83.153 E27.03792
G1 X107.764 Y84.165 E27.12061
G1 X110.16 Y85.153 E27.20682
G1 X112.535 Y86.054 E27.2913
G1 X114.92 Y86.882 E27.37527
G1 X117.336 Y87.647 E27.45956
G1 X119.784 Y88.344 E27.54422
G1 X122.256 Y88.974 E27.62906
G1 X124.718 Y89.528 E27.713
G1 X127.211 Y90.015 E27.79748
G1 X129.729 Y90.434 E27.88238
G1 X132.249 Y90.78 E27.96698
G1 X134.755 Y91.052 E28.05082
G1 X137.292 Y91.255 E28.13547
G1 X139.8 Y91.385 E28.219
G1 X143.275 Y91.45 E28.3346
G1 X164.945 Y91.451 E29.05535
G1 X165.549 Y91.46 E29.07544
G1 X166.45 Y91.514 E29.10546
G1 X166.951 Y91.566 E29.12222
G1 X167.844 Y91.698 E29.15224
G1 X168.722 Y91.91 E29.18228
G1 X169.662 Y92.231 E29.21532
G1 X170.06 Y92.389 E29.22956
G1 X170.883 Y92.759 E29.25957
G1 X171.671 Y93.2 E29.28961
G1 X172.474 Y93.753 E29.32204
G1 X172.784 Y93.989 E29.33499
G1 X173.478 Y94.568 E29.36505
G1 X174.118 Y95.205 E29.39509
G1 X174.596 Y95.764 E29.41955
G1 X174.846 Y96.079 E29.43293
G1 X175.375 Y96.811 E29.46297
G1 X175.838 Y97.586 E29.49299
G1 X176.196 Y98.32 E29.52015
G1 X176.376 Y98.73 E29.53505
G1 X176.702 Y99.572 E29.56508
G1 X176.952 Y100.44 E29.59512
G1 X177.142 Y101.452 E29.62937
G1 X177.181 Y101.738 E29.63897
G1 X177.273 Y102.905 E29.6779
G1 X177.298 Y104.111 E29.71802
G1 X177.299 Y138.695 E30.86829
G1 X177.29 Y139.299 E30.88838
G1 X177.238 Y140.184 E30.91787
G1 X177.187 Y140.683 E30.93455
G1 X177.056 Y141.577 E30.9646
G1 X176.846 Y142.455 E30.99463
G1 X176.515 Y143.422 E31.02863
G1 X176.356 Y143.821 E31.04291
G1 X175.985 Y144.644 E31.07294
G1 X175.543 Y145.431 E31.10296
G1 X175.006 Y146.211 E31.13445
G1 X174.77 Y146.522 E31.14744
G1 X174.193 Y147.216 E31.17746
G1 X173.557 Y147.857 E31.20749
G1 X172.986 Y148.346 E31.2325
G1 X172.671 Y148.596 E31.24587
G1 X171.939 Y149.125 E31.27591
G1 X171.164 Y149.588 E31.30594
G1 X170.42 Y149.95 E31.33346
G1 X170.011 Y150.129 E31.3483
G1 X169.168 Y150.454 E31.37835
G1 X168.3 Y150.704 E31.4084
G1 X167.319 Y150.889 E31.4416
G1 X167.03 Y150.929 E31.4513
G1 X165.844 Y151.023 E31.49087
G1 X164.64 Y151.048 E31.53093
G1 X60.055 Y151.049 E35.00944
G1 X59.451 Y151.04 E35.02953
G1 X58.55 Y150.986 E35.05955
G1 X58.049 Y150.934 E35.07631
G1 X57.156 Y150.802 E35.10633
G1 X56.278 Y150.59 E35.13637
G1 X55.33 Y150.266 E35.16969
G1 X54.933 Y150.108 E35.1839
G1 X54.11 Y149.737 E35.21393
G1 X53.322 Y149.295 E35.24398
G1 X52.539 Y148.756 E35.2756
G1 X52.228 Y148.52 E35.28858
G1 X51.534 Y147.943 E35.3186
G1 X50.893 Y147.307 E35.34863
G1 X50.404 Y146.736 E35.37364
G1 X50.154 Y146.421 E35.38701
G1 X49.625 Y145.689 E35.41705
G1 X49.162 Y144.914 E35.44708
G1 X48.804 Y144.18 E35.47424
G1 X48.624 Y143.77 E35.48913
G1 X48.298 Y142.928 E35.51916
G1 X48.048 Y142.06 E35.54921
G1 X47.858 Y141.048 E35.58345
G1 X47.819 Y140.762 E35.59305
G1 X47.727 Y139.595 E35.63199
G1 X47.702 Y138.389 E35.67211
G1 X47.7 Y106.194 E36.74292
G1 X47.663 Y103.588 E36.8296
G1 X47.556 Y101.056 E36.91389
G1 X47.432 Y99.461 E36.9671
G1 X47.425 Y99.265 E36.97363
G1 X47.333 Y97.925 E37.0183
G1 X47.31 Y97.359 E37.03714
G1 X47.3 Y96.541 E37.06435
G1 X47.302 Y94.259 E37.14025
G1 X47.314 Y93.409 E37.16852
G1 X47.329 Y92.976 E37.18293
G1 X47.363 Y92.376 E37.20292
G1 X47.43 Y91.654 E37.22704
G1 X47.554 Y90.688 E37.25943
G1 X47.738 Y89.67 E37.29384
G1 X47.964 Y88.701 E37.32693
G1 X48.222 Y87.789 E37.35846
G1 X48.507 Y86.935 E37.3884
G1 X48.707 Y86.378 E37.40809
G1 X48.928 Y85.83 E37.42774
G1 X49.236 Y85.153 E37.45248
G1 X49.457 Y84.702 E37.46918
G1 X49.763 Y84.124 E37.49093
G1 X50.199 Y83.362 E37.52013
G1 X50.558 Y82.772 E37.5431
G1 X50.847 Y82.335 E37.56053
G1 X51.264 Y81.755 E37.58429
G1 X51.567 Y81.358 E37.6009
G1 X52.004 Y80.823 E37.62388
G1 X52.642 Y80.095 E37.65607
G1 X53.333 Y79.38 E37.68914
G1 X54.048 Y78.709 E37.72176
G1 X54.781 Y78.084 E37.75379
G1 X55.478 Y77.544 E37.78312
G1 X55.983 Y77.171 E37.804
M204 S2000
G1 F2400 E37.004
;MESH:TriscuitGuard.stl
G0 F7500 X64.357 Y83.561
G0 X85.813 Y98.61
M204 S500
;TYPE:WALL-INNER
G1 F2400 E37.804
G1 F1500 X86.106 Y98.508 E37.81432
G1 X86.367 Y98.343 E37.82459
G1 X86.593 Y98.118 E37.8352
G1 X86.759 Y97.853 E37.8456
G1 X86.861 Y97.564 E37.85579
G1 X86.899 Y97.226 E37.8671
G1 X86.899 Y85.783 E38.2477
G1 X86.861 Y85.437 E38.25928
G1 X86.758 Y85.143 E38.26964
G1 X86.593 Y84.882 E38.27991
G1 X86.367 Y84.657 E38.29052
G1 X86.107 Y84.492 E38.30076
G1 X85.813 Y84.39 E38.31111
G1 X85.476 Y84.351 E38.32239
G1 X67.516 Y84.351 E38.91974
G1 X66.581 Y84.396 E38.95088
G1 X65.669 Y84.532 E38.98155
G1 X64.786 Y84.753 E39.01182
