;FLAVOR:Marlin
;TIME:12910
;Filament used: 8.29519m
;Layer height: 0.2
;MINX:46.5
;MINY:61
;MINZ:0.2
;MAXX:178.099
;MAXY:163.599
;MAXZ:10
;Generated with Cura_SteamEngine 5.3.0-alpha+cura_9879_88
M82 ;absolute extrusion mode
; Ender 3 S1 Start G-code
G92 E0 ; Reset Extruder
G28 ; Home all axes

M420 S1 ; Load bed level mesh

G1 Z10.0 F3000 ; Move Z Axis up little to prevent scratching of Heat Bed
G1 X0 Y0

M104 S190
M190 S50
M109 S190

G1 X0.1 Y20 Z0.3 F5000.0 ; Move to start position
G1 X0.1 Y200.0 Z0.3 F1500.0 E15 ; Draw the first line
G1 X0.4 Y200.0 Z0.3 F5000.0 ; Move to side a little
G1 X0.4 Y20 Z0.3 F1500.0 E30 ; Draw the second line
G92 E0 ; Reset Extruder
G1 Z2.0 F3000 ; Move Z Axis up little to prevent scratching of Heat Bed
G1 X5 Y20 Z0.3 F5000.0 ; Move over to prevent blob squish
G92 E0
G92 E0
G1 F2400 E-0.8
;LAYER_COUNT:50
;LAYER:0
M107
M204 S2000
G0 F6000 X53.948 Y65.979 Z0.2
M204 S500
;TYPE:SKIRT
G1 F2400 E0
G1 F900 X54.509 Y65.526 E0.02398
G1 X54.882 Y65.238 E0.03966
G1 X55.384 Y64.867 E0.06042
G1 X56.174 Y64.334 E0.09211
G1 X56.856 Y63.916 E0.11872
G1 X57.66 Y63.469 E0.14932
G1 X58.457 Y63.068 E0.17899
G1 X59.291 Y62.691 E0.20943
G1 X59.862 Y62.461 E0.22991
G1 X60.316 Y62.289 E0.24605
G1 X60.963 Y62.061 E0.26887
G1 X61.856 Y61.789 E0.29992
G1 X62.619 Y61.591 E0.32614
G1 X63.53 Y61.395 E0.35713
G1 X64.385 Y61.249 E0.38598
G1 X65.323 Y61.13 E0.41743
G1 X65.935 Y61.079 E0.43785
G1 X66.379 Y61.051 E0.45265
G1 X67.267 Y61.013 E0.48221
G1 X67.736 Y61.003 E0.49781
G1 X99.798 Y61 E1.5642
G1 X100.526 Y61.009 E1.58842
G1 X101.246 Y61.043 E1.61239
G1 X101.761 Y61.084 E1.62957
G1 X102.692 Y61.198 E1.66077
G1 X103.888 Y61.466 E1.70153
G1 X104.142 Y61.538 E1.71032
G1 X105.033 Y61.832 E1.74152
G1 X105.89 Y62.198 E1.77252
G1 X106.262 Y62.376 E1.78623
G1 X107.09 Y62.817 E1.81743
G1 X107.965 Y63.389 E1.8522
G1 X108.762 Y63.966 E1.88493
G1 X110.283 Y65.115 E1.94833
G1 X112.285 Y66.544 E2.03014
G1 X114.401 Y67.965 E2.11492
G1 X116.545 Y69.319 E2.19926
G1 X118.72 Y70.608 E2.28335
G1 X120.91 Y71.824 E2.36666
G1 X123.126 Y72.973 E2.44968
G1 X125.398 Y74.071 E2.53361
G1 X127.697 Y75.102 E2.61741
G1 X130.046 Y76.078 E2.70202
G1 X132.367 Y76.964 E2.78465
G1 X134.765 Y77.805 E2.86917
G1 X137.146 Y78.564 E2.95229
G1 X139.589 Y79.268 E3.03685
G1 X141.973 Y79.881 E3.11872
G1 X144.477 Y80.452 E3.20414
G1 X146.942 Y80.941 E3.28773
G1 X149.392 Y81.355 E3.37037
G1 X151.909 Y81.707 E3.4549
G1 X154.396 Y81.983 E3.53812
G1 X156.925 Y82.192 E3.62253
G1 X159.394 Y82.326 E3.70477
G1 X163.108 Y82.4 E3.82832
G1 X165.173 Y82.401 E3.897
G1 X165.875 Y82.411 E3.92035
G1 X166.811 Y82.464 E3.95153
G1 X167.739 Y82.597 E3.98271
G1 X169.008 Y82.914 E4.02622
G1 X169.41 Y83.04 E4.04023
G1 X170.292 Y83.358 E4.07141
G1 X171.403 Y83.888 E4.11235
G1 X171.666 Y84.032 E4.12233
G1 X172.468 Y84.517 E4.1535
G1 X173.465 Y85.263 E4.19492
G1 X173.818 Y85.56 E4.21026
G1 X174.509 Y86.194 E4.24145
G1 X175.144 Y86.884 E4.27264
G1 X175.717 Y87.626 E4.30382
G1 X176.243 Y88.444 E4.33617
G1 X176.495 Y88.877 E4.35283
G1 X176.932 Y89.707 E4.38403
G1 X177.296 Y90.571 E4.41521
G1 X177.586 Y91.463 E4.44641
G1 X177.804 Y92.357 E4.47701
G1 X177.977 Y93.279 E4.50821
G1 X178.071 Y94.212 E4.5394
G1 X178.088 Y94.687 E4.55521
G1 X178.099 Y95.452 E4.58066
G1 X178.099 Y150.673 E6.41732
G1 X178.089 Y151.375 E6.44067
G1 X178.036 Y152.311 E6.47185
G1 X177.903 Y153.239 E6.50303
G1 X177.586 Y154.508 E6.54653
G1 X177.46 Y154.91 E6.56055
G1 X177.142 Y155.792 E6.59173
G1 X176.612 Y156.903 E6.63267
G1 X176.468 Y157.166 E6.64264
G1 X175.983 Y157.968 E6.67382
G1 X175.222 Y158.983 E6.71601
G1 X174.922 Y159.338 E6.73147
G1 X174.286 Y160.028 E6.76268
G1 X173.595 Y160.661 E6.79385
G1 X172.851 Y161.233 E6.82506
G1 X172.032 Y161.757 E6.8574
G1 X171.602 Y162.006 E6.87393
G1 X170.771 Y162.441 E6.90512
G1 X169.906 Y162.804 E6.93633
G1 X168.601 Y163.197 E6.98166
G1 X168.166 Y163.299 E6.99652
G1 X167.245 Y163.474 E7.0277
G1 X166.312 Y163.569 E7.05889
G1 X165.813 Y163.588 E7.0755
G1 X165.048 Y163.599 E7.10094
G1 X59.8 Y163.598 E10.60151
G1 X59.084 Y163.586 E10.62532
G1 X58.147 Y163.531 E10.65654
G1 X57.219 Y163.396 E10.68773
G1 X55.919 Y163.066 E10.73234
G1 X55.531 Y162.942 E10.74589
G1 X54.651 Y162.619 E10.77707
G1 X53.597 Y162.112 E10.81597
G1 X53.334 Y161.968 E10.82594
G1 X52.532 Y161.483 E10.85712
G1 X51.537 Y160.739 E10.89844
G1 X51.185 Y160.443 E10.91373
G1 X50.494 Y159.809 E10.94493
G1 X49.859 Y159.119 E10.97611
G1 X49.285 Y158.377 E11.00732
G1 X48.751 Y157.545 E11.0402
G1 X48.498 Y157.109 E11.05696
G1 X48.062 Y156.278 E11.08818
G1 X47.699 Y155.414 E11.11935
G1 X47.301 Y154.092 E11.16527
G1 X47.2 Y153.66 E11.18002
G1 X47.025 Y152.739 E11.2112
G1 X46.93 Y151.806 E11.24239
G1 X46.912 Y151.31 E11.2589
G1 X46.9 Y150.37 E11.29017
G1 X46.9 Y98.149 E13.02705
G1 X46.863 Y95.54 E13.11383
G1 X46.757 Y93.048 E13.19679
G1 X46.562 Y90.406 E13.2849
G1 X46.518 Y89.604 E13.31162
G1 X46.504 Y89.052 E13.32998
G1 X46.5 Y82.527 E13.547
G1 X46.52 Y81.382 E13.58509
G1 X46.559 Y80.647 E13.60957
G1 X46.634 Y79.781 E13.63849
G1 X46.749 Y78.885 E13.66853
G1 X46.896 Y78.021 E13.69768
G1 X47.116 Y77.013 E13.732
G1 X47.369 Y76.071 E13.76444
G1 X47.596 Y75.333 E13.79012
G1 X47.858 Y74.616 E13.81551
G1 X48.127 Y73.949 E13.83943
G1 X48.311 Y73.52 E13.85495
G1 X48.662 Y72.768 E13.88256
G1 X48.977 Y72.143 E13.90583
G1 X49.438 Y71.319 E13.93724
G1 X49.855 Y70.643 E13.96366
G1 X50.382 Y69.865 E13.99491
G1 X50.764 Y69.35 E14.01624
G1 X51.035 Y69 E14.03096
G1 X51.438 Y68.5 E14.05232
G1 X52.057 Y67.795 E14.08352
G1 X52.713 Y67.11 E14.11507
G1 X53.297 Y66.544 E14.14212
G1 X53.948 Y65.979 E14.17079
M204 S2000
G0 F6000 X54.2 Y66.29
M204 S500
G1 F900 X54.761 Y65.837 E14.19477
G1 X55.12 Y65.559 E14.20987
G1 X55.622 Y65.188 E14.23063
G1 X56.383 Y64.675 E14.26116
G1 X57.065 Y64.257 E14.28776
G1 X57.84 Y63.826 E14.31726
G1 X58.637 Y63.425 E14.34693
G1 X59.441 Y63.062 E14.37627
G1 X60.012 Y62.832 E14.39675
G1 X60.449 Y62.667 E14.41228
G1 X61.096 Y62.439 E14.4351
G1 X61.956 Y62.176 E14.46501
G1 X62.719 Y61.978 E14.49123
G1 X63.598 Y61.789 E14.52113
G1 X64.453 Y61.643 E14.54998
G1 X65.357 Y61.529 E14.58029
G1 X65.969 Y61.478 E14.60071
G1 X66.396 Y61.451 E14.61494
G1 X67.284 Y61.413 E14.64451
G1 X67.736 Y61.403 E14.65954
G1 X99.798 Y61.4 E15.72593
G1 X100.521 Y61.409 E15.74998
G1 X101.214 Y61.441 E15.77305
G1 X101.729 Y61.482 E15.79024
G1 X102.643 Y61.595 E15.82087
G1 X103.779 Y61.851 E15.8596
G1 X104.033 Y61.923 E15.86838
G1 X104.907 Y62.212 E15.899
G1 X105.717 Y62.559 E15.92831
G1 X106.089 Y62.737 E15.94202
G1 X106.902 Y63.17 E15.97266
G1 X107.73 Y63.713 E16.00559
G1 X108.527 Y64.29 E16.03832
G1 X110.014 Y65.414 E16.10031
G1 X112.084 Y66.891 E16.18489
G1 X114.21 Y68.319 E16.27007
G1 X116.307 Y69.643 E16.35256
G1 X118.501 Y70.943 E16.43738
G1 X120.738 Y72.185 E16.52248
G1 X122.947 Y73.331 E16.60525
G1 X125.239 Y74.438 E16.68991
G1 X127.546 Y75.473 E16.77401
G1 X129.857 Y76.433 E16.85724
G1 X132.285 Y77.36 E16.94368
G1 X134.606 Y78.175 E17.0255
G1 X137.062 Y78.957 E17.11123
G1 X139.443 Y79.643 E17.19364
G1 X141.899 Y80.275 E17.27799
G1 X144.382 Y80.841 E17.36269
G1 X146.869 Y81.334 E17.44702
G1 X149.341 Y81.751 E17.5304
G1 X151.876 Y82.106 E17.61554
G1 X154.355 Y82.381 E17.6985
G1 X156.906 Y82.592 E17.78363
G1 X159.364 Y82.725 E17.8655
G1 X163.1 Y82.8 E17.98979
G1 X165.167 Y82.801 E18.05854
G1 X165.869 Y82.811 E18.08189
G1 X166.788 Y82.864 E18.11251
G1 X167.699 Y82.997 E18.14313
G1 X168.888 Y83.295 E18.1839
G1 X169.29 Y83.421 E18.19791
G1 X170.156 Y83.734 E18.22854
G1 X171.211 Y84.238 E18.26742
G1 X171.474 Y84.382 E18.2774
G1 X172.261 Y84.859 E18.308
G1 X173.207 Y85.569 E18.34734
G1 X173.56 Y85.866 E18.36269
G1 X174.238 Y86.489 E18.39331
G1 X174.86 Y87.168 E18.42394
G1 X175.42 Y87.899 E18.45457
G1 X175.897 Y88.645 E18.48402
G1 X176.149 Y89.078 E18.50068
G1 X176.578 Y89.893 E18.53131
G1 X176.933 Y90.742 E18.56192
G1 X177.313 Y92.013 E18.60604
G1 X177.414 Y92.448 E18.6209
G1 X177.583 Y93.353 E18.65152
G1 X177.688 Y94.693 E18.69622
G1 X177.7 Y95.61 E18.72673
G1 X177.699 Y150.667 E20.55793
G1 X177.689 Y151.369 E20.58128
G1 X177.636 Y152.288 E20.6119
G1 X177.503 Y153.199 E20.64252
G1 X177.205 Y154.388 E20.68329
G1 X177.079 Y154.79 E20.6973
G1 X176.766 Y155.656 E20.72793
G1 X176.262 Y156.711 E20.76681
G1 X176.118 Y156.974 E20.77679
G1 X175.641 Y157.761 E20.80739
G1 X174.916 Y158.725 E20.84751
G1 X174.616 Y159.08 E20.86297
G1 X173.992 Y159.757 E20.89359
G1 X173.311 Y160.377 E20.92423
G1 X172.58 Y160.935 E20.95481
G1 X171.832 Y161.411 E20.9843
G1 X171.402 Y161.66 E21.00083
G1 X170.586 Y162.086 E21.03144
G1 X169.736 Y162.44 E21.06207
G1 X168.51 Y162.807 E21.10463
G1 X168.075 Y162.909 E21.1195
G1 X167.17 Y163.08 E21.15013
G1 X165.807 Y163.188 E21.1956
G1 X164.89 Y163.2 E21.22611
G1 X59.806 Y163.199 E24.72121
G1 X59.09 Y163.187 E24.74503
G1 X58.171 Y163.131 E24.77565
G1 X57.261 Y162.996 E24.80625
G1 X56.041 Y162.685 E24.84813
G1 X55.653 Y162.561 E24.86168
G1 X54.789 Y162.243 E24.8923
G1 X53.789 Y161.762 E24.9292
G1 X53.526 Y161.618 E24.93918
G1 X52.739 Y161.141 E24.96979
G1 X51.795 Y160.433 E25.00903
G1 X51.443 Y160.137 E25.02433
G1 X50.765 Y159.514 E25.05495
G1 X50.143 Y158.835 E25.08558
G1 X49.583 Y158.105 E25.11618
G1 X49.097 Y157.344 E25.14621
G1 X48.844 Y156.908 E25.16298
G1 X48.417 Y156.092 E25.19361
G1 X48.062 Y155.243 E25.22422
G1 X47.69 Y154.001 E25.26734
G1 X47.589 Y153.569 E25.2821
G1 X47.419 Y152.664 E25.31272
G1 X47.312 Y151.304 E25.3581
G1 X47.3 Y150.37 E25.38916
G1 X47.3 Y98.143 E27.12624
G1 X47.263 Y95.518 E27.21356
G1 X47.157 Y93.033 E27.29629
G1 X46.961 Y90.376 E27.3849
G1 X46.918 Y89.584 E27.41128
G1 X46.904 Y89.051 E27.42901
G1 X46.9 Y82.526 E27.64603
G1 X46.92 Y81.39 E27.68382
G1 X46.958 Y80.681 E27.70744
G1 X47.033 Y79.815 E27.73635
G1 X47.143 Y78.952 E27.76529
G1 X47.29 Y78.088 E27.79444
G1 X47.503 Y77.117 E27.8275
G1 X47.756 Y76.175 E27.85994
G1 X47.974 Y75.464 E27.88468
G1 X48.229 Y74.765 E27.90942
G1 X48.498 Y74.098 E27.93334
G1 X48.675 Y73.685 E27.94829
G1 X49.019 Y72.948 E27.97534
G1 X49.334 Y72.323 E27.99862
G1 X49.778 Y71.529 E28.02888
G1 X50.195 Y70.853 E28.05529
G1 X50.703 Y70.103 E28.08542
G1 X51.085 Y69.588 E28.10675
G1 X51.749 Y68.751 E28.14228
G1 X52.346 Y68.071 E28.17238
G1 X53.002 Y67.386 E28.20393
G1 X53.565 Y66.841 E28.22999
G1 X54.2 Y66.29 E28.25795
M204 S2000
G0 F6000 X54.451 Y66.601
M204 S500
G1 F900 X55.012 Y66.148 E28.28193
G1 X55.358 Y65.881 E28.29647
G1 X55.86 Y65.51 E28.31723
G1 X56.592 Y65.016 E28.3466
G1 X57.274 Y64.598 E28.37321
G1 X58.02 Y64.183 E28.4016
G1 X58.817 Y63.782 E28.43127
G1 X59.59 Y63.433 E28.45948
G1 X60.161 Y63.203 E28.47996
G1 X60.582 Y63.044 E28.49493
G1 X61.229 Y62.816 E28.51774
G1 X62.057 Y62.563 E28.54654
G1 X62.82 Y62.365 E28.57276
G1 X63.665 Y62.184 E28.6015
G1 X64.52 Y62.038 E28.63035
G1 X65.39 Y61.927 E28.65952
G1 X66.413 Y61.85 E28.69364
G1 X67.301 Y61.812 E28.7232
G1 X67.736 Y61.803 E28.73767
G1 X99.798 Y61.8 E29.80406
G1 X100.515 Y61.809 E29.82791
G1 X101.182 Y61.84 E29.85012
G1 X101.697 Y61.881 E29.8673
G1 X102.594 Y61.993 E29.89737
G1 X103.67 Y62.236 E29.93406
G1 X103.924 Y62.308 E29.94284
G1 X104.781 Y62.592 E29.97286
G1 X105.545 Y62.92 E30.00052
G1 X105.917 Y63.098 E30.01423
G1 X106.713 Y63.524 E30.04426
G1 X107.495 Y64.037 E30.07537
G1 X108.469 Y64.745 E30.11542
G1 X109.787 Y65.743 E30.17041
G1 X111.875 Y67.233 E30.25572
G1 X113.97 Y68.641 E30.33968
G1 X116.095 Y69.982 E30.42325
G1 X118.309 Y71.294 E30.50885
G1 X120.539 Y72.532 E30.59368
G1 X122.768 Y73.688 E30.67719
G1 X125.08 Y74.805 E30.7626
G1 X127.377 Y75.835 E30.84632
G1 X129.727 Y76.812 E30.93097
G1 X132.114 Y77.723 E31.01595
G1 X134.49 Y78.557 E31.0997
G1 X136.935 Y79.336 E31.18505
G1 X139.347 Y80.031 E31.26854
G1 X141.815 Y80.666 E31.3533
G1 X144.32 Y81.237 E31.43875
G1 X146.756 Y81.72 E31.52135
G1 X149.291 Y82.148 E31.60686
G1 X151.814 Y82.501 E31.69159
G1 X154.349 Y82.783 E31.77642
G1 X156.851 Y82.989 E31.85992
G1 X159.364 Y83.125 E31.94363
G1 X163.092 Y83.2 E32.06765
G1 X165.161 Y83.201 E32.13646
G1 X165.863 Y83.211 E32.15981
G1 X166.765 Y83.264 E32.18987
G1 X167.658 Y83.396 E32.21989
G1 X168.769 Y83.677 E32.25801
G1 X169.171 Y83.803 E32.27202
G1 X170.02 Y84.111 E32.30206
G1 X171.019 Y84.589 E32.33889
G1 X171.282 Y84.733 E32.34886
G1 X172.054 Y85.202 E32.37891
G1 X172.95 Y85.875 E32.41618
G1 X173.303 Y86.172 E32.43152
G1 X173.967 Y86.783 E32.46153
G1 X174.575 Y87.451 E32.49158
G1 X175.122 Y88.17 E32.52162
G1 X175.552 Y88.846 E32.54827
G1 X175.804 Y89.279 E32.56493
G1 X176.223 Y90.079 E32.59497
G1 X176.57 Y90.913 E32.62502
G1 X176.924 Y92.103 E32.66631
G1 X177.025 Y92.538 E32.68116
G1 X177.19 Y93.426 E32.7112
G1 X177.288 Y94.698 E32.75363
G1 X177.3 Y95.61 E32.78397
G1 X177.299 Y150.661 E34.61497
G1 X177.289 Y151.363 E34.63833
G1 X177.236 Y152.265 E34.66838
G1 X177.104 Y153.158 E34.6984
G1 X176.823 Y154.269 E34.73652
G1 X176.697 Y154.671 E34.75053
G1 X176.389 Y155.52 E34.78057
G1 X175.911 Y156.519 E34.8174
G1 X175.767 Y156.782 E34.82738
G1 X175.298 Y157.554 E34.85742
G1 X174.611 Y158.467 E34.89542
G1 X174.311 Y158.822 E34.91088
G1 X173.698 Y159.485 E34.94091
G1 X173.029 Y160.091 E34.97094
G1 X172.308 Y160.636 E35.001
G1 X171.631 Y161.065 E35.02765
G1 X171.201 Y161.314 E35.04418
G1 X170.401 Y161.731 E35.07419
G1 X169.566 Y162.076 E35.10424
G1 X168.419 Y162.418 E35.14405
G1 X167.984 Y162.52 E35.15891
G1 X167.096 Y162.687 E35.18896
G1 X165.802 Y162.788 E35.23213
G1 X164.89 Y162.8 E35.26246
G1 X59.813 Y162.799 E38.75734
G1 X59.097 Y162.787 E38.78116
G1 X58.196 Y162.731 E38.81118
G1 X57.303 Y162.597 E38.84122
G1 X56.163 Y162.304 E38.88036
G1 X55.775 Y162.18 E38.89391
G1 X54.928 Y161.867 E38.92395
G1 X53.981 Y161.411 E38.9589
G1 X53.718 Y161.267 E38.96888
G1 X52.946 Y160.798 E38.99892
G1 X52.052 Y160.127 E39.0361
G1 X51.7 Y159.831 E39.0514
G1 X51.035 Y159.219 E39.08146
G1 X50.427 Y158.552 E39.11147
G1 X49.881 Y157.833 E39.1415
G1 X49.443 Y157.143 E39.16868
G1 X49.19 Y156.707 E39.18545
G1 X48.771 Y155.907 E39.21549
G1 X48.426 Y155.073 E39.24551
G1 X48.08 Y153.91 E39.28586
G1 X47.979 Y153.478 E39.30062
G1 X47.812 Y152.59 E39.33067
G1 X47.712 Y151.299 E39.37374
G1 X47.7 Y150.37 E39.40464
G1 X47.7 Y98.137 E41.14192
G1 X47.663 Y95.531 E41.2286
G1 X47.555 Y92.988 E41.31326
G1 X47.345 Y90.114 E41.4091
G1 X47.317 Y89.564 E41.42742
G1 X47.304 Y89.051 E41.44449
G1 X47.3 Y82.526 E41.66151
G1 X47.32 Y81.397 E41.69907
G1 X47.356 Y80.716 E41.72175
G1 X47.431 Y79.85 E41.75066
G1 X47.538 Y79.019 E41.77853
G1 X47.685 Y78.155 E41.80768
G1 X47.889 Y77.22 E41.83951
G1 X48.142 Y76.278 E41.87195
G1 X48.352 Y75.594 E41.89574
G1 X48.6 Y74.915 E41.91979
G1 X48.869 Y74.248 E41.94371
G1 X49.04 Y73.85 E41.95812
G1 X49.376 Y73.128 E41.9846
G1 X49.691 Y72.503 E42.00788
G1 X50.119 Y71.739 E42.03701
G1 X50.536 Y71.063 E42.06343
G1 X51.025 Y70.341 E42.09243
G1 X51.657 Y69.502 E42.12737
G1 X52.06 Y69.002 E42.14872
G1 X52.635 Y68.348 E42.17769
G1 X53.291 Y67.663 E42.20923
G1 X53.832 Y67.138 E42.23431
G1 X54.033 Y66.957 E42.2433
G1 X54.451 Y66.601 E42.26157
M204 S2000
G1 F2400 E41.46157
;MESH:Triscuit Guard v8.stl
G0 F6000 X64.799 Y71.685
G0 X100.75 Y90.374
M204 S500
;TYPE:WALL-INNER
G1 F2400 E42.26157
G1 F900 X101.001 Y90.303 E42.27024
G1 X101.23 Y90.19 E42.27873
G1 X101.492 Y89.993 E42.28964
G1 X101.685 Y89.737 E42.3003
G1 X101.802 Y89.506 E42.30891
G1 X101.872 Y89.259 E42.31745
G1 X101.9 Y88.976 E42.32691
G1 X101.9 Y74.029 E42.82405
G1 X101.874 Y73.75 E42.83337
G1 X101.803 Y73.5 E42.84201
G1 X101.689 Y73.268 E42.85061
G1 X101.495 Y73.009 E42.86137
G1 X101.237 Y72.814 E42.87213
G1 X101.009 Y72.7 E42.88061
G1 X100.758 Y72.627 E42.8893
G1 X100.475 Y72.6 E42.89876
G1 X67.509 Y72.6 E43.99521
G1 X67.11 Y72.609 E44.00849
G1 X66.712 Y72.634 E44.02175
G1 X66.314 Y72.676 E44.03506
G1 X65.918 Y72.735 E44.04838
G1 X65.539 Y72.807 E44.06121
G1 X65.137 Y72.903 E44.07495
G1 X64.753 Y73.01 E44.08821
G1 X64.37 Y73.135 E44.10161
G1 X64.004 Y73.276 E44.11466
G1 X63.636 Y73.432 E44.12795
G1 X63.274 Y73.606 E44.14131
G1 X62.923 Y73.791 E44.15451
G1 X62.577 Y73.994 E44.16785
G1 X62.241 Y74.209 E44.18112
G1 X61.918 Y74.438 E44.19429
